;FLAVOR:Marlin
;TIME:1302
;Filament used: 1.64685m
;Layer height: 0.2
;MINX:22.796
;MINY:31.216
;MINZ:0.3
;MAXX:56.796
;MAXY:65.216
;MAXZ:14.5
;Generated with Cura_SteamEngine 4.3.0
M140 S60
M105
M190 S60
M104 S200
M105
M109 S200
M82 ;absolute extrusion mode
G28 ;Home
G1 Z15.0 F6000 ;Move the platform down 15mm
;Prime the extruder
G92 E0
G1 F200 E3
G92 E0
G92 E0
G92 E0
G1 F1500 E-6.5
;LAYER_COUNT:72
;LAYER:0
M107 P1
G0 F3600 X25.139 Y32.484 Z0.3
;TYPE:SKIRT
G1 F1500 E0
G1 F1800 X25.569 Y32.194 E0.02588
G1 X26.012 Y31.936 E0.05145
G1 X26.519 Y31.687 E0.07963
G1 X26.919 Y31.549 E0.10074
G1 X27.357 Y31.423 E0.12348
G1 X27.93 Y31.303 E0.15269
G1 X28.205 Y31.266 E0.16653
G1 X28.696 Y31.23 E0.19109
G1 X29.168 Y31.225 E0.21464
G1 X29.208 Y31.225 E0.21664
G1 X49.854 Y31.216 E1.24667
G1 X49.913 Y31.216 E1.24962
G1 X50.76 Y31.228 E1.29188
G1 X50.948 Y31.236 E1.30126
G1 X51.371 Y31.262 E1.32241
G1 X51.932 Y31.336 E1.35064
G1 X52.251 Y31.415 E1.36703
G1 X52.565 Y31.507 E1.38336
G1 X52.698 Y31.549 E1.39032
G1 X52.864 Y31.604 E1.39904
G1 X53.387 Y31.819 E1.42725
G1 X53.683 Y31.983 E1.44414
G1 X54.045 Y32.203 E1.46527
G1 X54.507 Y32.53 E1.49351
G1 X54.747 Y32.744 E1.50955
G1 X55.132 Y33.116 E1.53626
G1 X55.51 Y33.537 E1.56449
G1 X55.8 Y33.964 E1.59024
G1 X56.066 Y34.416 E1.6164
G1 X56.318 Y34.923 E1.64465
G1 X56.463 Y35.339 E1.66663
G1 X56.587 Y35.77 E1.689
G1 X56.705 Y36.328 E1.71746
G1 X56.744 Y36.61 E1.73166
G1 X56.782 Y37.115 E1.75693
G1 X56.787 Y37.576 E1.77993
G1 X56.787 Y37.617 E1.78197
G1 X56.796 Y58.236 E2.81066
G1 X56.796 Y58.292 E2.81345
G1 X56.784 Y59.177 E2.85761
G1 X56.776 Y59.368 E2.86715
G1 X56.75 Y59.791 E2.88829
G1 X56.676 Y60.352 E2.91652
G1 X56.597 Y60.671 E2.93292
G1 X56.505 Y60.985 E2.94924
G1 X56.465 Y61.111 E2.95584
G1 X56.411 Y61.275 E2.96445
G1 X56.197 Y61.798 E2.99264
G1 X56.03 Y62.102 E3.00995
G1 X55.805 Y62.472 E3.03155
G1 X55.478 Y62.933 E3.05975
G1 X55.257 Y63.18 E3.07629
G1 X54.889 Y63.559 E3.10264
G1 X54.467 Y63.936 E3.13087
G1 X54.048 Y64.22 E3.15613
G1 X53.596 Y64.486 E3.18229
G1 X53.089 Y64.738 E3.21054
G1 X52.673 Y64.883 E3.23252
G1 X52.235 Y65.009 E3.25526
G1 X51.662 Y65.129 E3.28446
G1 X51.387 Y65.166 E3.29831
G1 X50.896 Y65.202 E3.32287
G1 X50.424 Y65.207 E3.34642
G1 X50.384 Y65.207 E3.34841
G1 X29.738 Y65.216 E4.37845
G1 X29.679 Y65.216 E4.38139
G1 X28.832 Y65.204 E4.42365
G1 X28.655 Y65.197 E4.43249
G1 X28.229 Y65.172 E4.45378
G1 X27.668 Y65.099 E4.482
G1 X27.317 Y65.011 E4.50006
G1 X27.006 Y64.918 E4.51625
G1 X26.894 Y64.883 E4.52211
G1 X26.728 Y64.828 E4.53083
G1 X26.205 Y64.613 E4.55904
G1 X25.907 Y64.448 E4.57603
G1 X25.534 Y64.221 E4.59782
G1 X25.073 Y63.894 E4.62602
G1 X24.815 Y63.662 E4.64333
G1 X24.436 Y63.291 E4.66979
G1 X24.061 Y62.868 E4.69799
G1 X23.781 Y62.451 E4.72305
G1 X23.518 Y62.001 E4.74905
G1 X23.268 Y61.494 E4.77725
G1 X23.125 Y61.082 E4.79901
G1 X23.001 Y60.648 E4.82153
G1 X22.882 Y60.08 E4.85048
G1 X22.845 Y59.804 E4.86438
G1 X22.81 Y59.314 E4.88889
G1 X22.805 Y58.822 E4.91343
G1 X22.805 Y58.783 E4.91538
G1 X22.796 Y38.158 E5.94436
G1 X22.796 Y38.099 E5.94731
G1 X22.808 Y37.252 E5.98957
G1 X22.816 Y37.064 E5.99896
G1 X22.842 Y36.641 E6.0201
G1 X22.916 Y36.08 E6.04833
G1 X22.995 Y35.761 E6.06473
G1 X23.087 Y35.447 E6.08105
G1 X23.131 Y35.307 E6.08837
G1 X23.187 Y35.139 E6.09721
G1 X23.403 Y34.617 E6.12539
G1 X23.566 Y34.323 E6.14216
G1 X23.789 Y33.957 E6.16354
G1 X24.117 Y33.496 E6.19177
G1 X24.34 Y33.247 E6.20845
G1 X24.717 Y32.86 E6.2354
G1 X25.139 Y32.484 E6.2636
G0 F3600 X25.405 Y32.784
G1 F1800 X25.77 Y32.54 E6.2855
G1 X26.213 Y32.282 E6.31108
G1 X26.695 Y32.047 E6.33783
G1 X27.03 Y31.933 E6.35549
G1 X27.468 Y31.807 E6.37823
G1 X27.983 Y31.699 E6.40448
G1 X28.258 Y31.662 E6.41832
G1 X28.7 Y31.63 E6.44043
G1 X29.172 Y31.625 E6.46398
G1 X29.208 Y31.625 E6.46578
G1 X49.854 Y31.616 E7.49581
G1 X49.907 Y31.616 E7.49845
G1 X50.754 Y31.628 E7.54072
G1 X50.924 Y31.635 E7.5492
G1 X51.347 Y31.661 E7.57035
G1 X52.138 Y31.799 E7.61041
G1 X52.452 Y31.891 E7.62673
G1 X52.572 Y31.929 E7.63301
G1 X52.738 Y31.984 E7.64174
G1 X53.233 Y32.19 E7.66848
G1 X53.476 Y32.325 E7.68235
G1 X53.838 Y32.545 E7.70349
G1 X54.47 Y33.032 E7.74329
G1 X54.855 Y33.404 E7.77
G1 X55.211 Y33.804 E7.79672
G1 X55.456 Y34.167 E7.81857
G1 X55.722 Y34.619 E7.84473
G1 X55.958 Y35.1 E7.87146
G1 X56.079 Y35.45 E7.88994
G1 X56.203 Y35.881 E7.91231
G1 X56.309 Y36.383 E7.93791
G1 X56.348 Y36.665 E7.95211
G1 X56.382 Y37.119 E7.97483
G1 X56.387 Y37.58 E7.99783
G1 X56.387 Y37.617 E7.99967
G1 X56.396 Y58.236 E9.02836
G1 X56.396 Y58.287 E9.0309
G1 X56.384 Y59.172 E9.07506
G1 X56.377 Y59.344 E9.08365
G1 X56.351 Y59.767 E9.10479
G1 X56.213 Y60.558 E9.14485
G1 X56.121 Y60.872 E9.16117
G1 X56.085 Y60.986 E9.16714
G1 X56.031 Y61.15 E9.17575
G1 X55.826 Y61.645 E9.20248
G1 X55.688 Y61.894 E9.21669
G1 X55.463 Y62.264 E9.23829
G1 X55.151 Y62.701 E9.26508
G1 X54.97 Y62.902 E9.27857
G1 X54.602 Y63.281 E9.30493
G1 X54.201 Y63.637 E9.33168
G1 X53.845 Y63.876 E9.35307
G1 X53.393 Y64.142 E9.37924
G1 X52.912 Y64.378 E9.40597
G1 X52.562 Y64.499 E9.42444
G1 X52.124 Y64.625 E9.44718
G1 X51.609 Y64.733 E9.47343
G1 X51.334 Y64.77 E9.48728
G1 X50.892 Y64.802 E9.50939
G1 X50.42 Y64.807 E9.53294
G1 X50.384 Y64.807 E9.53473
G1 X29.738 Y64.816 E10.56477
G1 X29.685 Y64.816 E10.56741
G1 X28.838 Y64.804 E10.60967
G1 X28.678 Y64.798 E10.61766
G1 X28.252 Y64.773 E10.63895
G1 X27.721 Y64.702 E10.66568
G1 X27.432 Y64.628 E10.68056
G1 X27.121 Y64.535 E10.69675
G1 X27.02 Y64.503 E10.70204
G1 X26.854 Y64.448 E10.71076
G1 X26.359 Y64.242 E10.73751
G1 X26.114 Y64.106 E10.75149
G1 X25.741 Y63.879 E10.77328
G1 X25.305 Y63.567 E10.80003
G1 X25.095 Y63.377 E10.81415
G1 X24.716 Y63.006 E10.84061
G1 X24.361 Y62.603 E10.86741
G1 X24.126 Y62.25 E10.88857
G1 X23.863 Y61.8 E10.91457
G1 X23.628 Y61.318 E10.94132
G1 X23.51 Y60.972 E10.95956
G1 X23.386 Y60.538 E10.98208
G1 X23.279 Y60.027 E11.00813
G1 X23.242 Y59.751 E11.02202
G1 X23.21 Y59.31 E11.04408
G1 X23.205 Y58.818 E11.06863
G1 X23.205 Y58.783 E11.07037
G1 X23.196 Y38.158 E12.09936
G1 X23.196 Y38.105 E12.102
G1 X23.208 Y37.258 E12.14426
G1 X23.215 Y37.088 E12.15275
G1 X23.241 Y36.665 E12.17389
G1 X23.379 Y35.874 E12.21395
G1 X23.471 Y35.56 E12.23028
G1 X23.511 Y35.434 E12.23687
G1 X23.567 Y35.266 E12.24571
G1 X23.774 Y34.771 E12.27248
G1 X23.908 Y34.531 E12.28619
G1 X24.131 Y34.165 E12.30757
G1 X24.443 Y33.729 E12.33432
G1 X24.626 Y33.526 E12.34795
G1 X25.003 Y33.139 E12.37491
G1 X25.405 Y32.784 E12.40167
G0 F3600 X25.67 Y33.085
G1 F1800 X25.972 Y32.886 E12.41971
G1 X26.415 Y32.628 E12.44529
G1 X26.87 Y32.409 E12.47048
G1 X27.14 Y32.318 E12.48469
G1 X27.578 Y32.192 E12.50743
G1 X28.036 Y32.096 E12.53078
G1 X28.311 Y32.059 E12.54462
G1 X28.704 Y32.03 E12.56428
G1 X29.176 Y32.025 E12.58783
G1 X29.209 Y32.025 E12.58948
G1 X49.855 Y32.016 E13.61951
G1 X49.901 Y32.016 E13.62181
G1 X50.748 Y32.028 E13.66407
G1 X50.899 Y32.034 E13.67161
G1 X51.322 Y32.06 E13.69275
G1 X52.026 Y32.183 E13.7284
G1 X52.34 Y32.275 E13.74473
G1 X52.446 Y32.308 E13.75027
G1 X52.612 Y32.363 E13.75899
G1 X53.268 Y32.666 E13.79504
G1 X53.63 Y32.886 E13.81618
G1 X54.192 Y33.32 E13.8516
G1 X54.577 Y33.692 E13.87831
G1 X54.911 Y34.071 E13.90351
G1 X55.111 Y34.37 E13.92146
G1 X55.377 Y34.822 E13.94763
G1 X55.598 Y35.277 E13.97286
G1 X55.694 Y35.56 E13.98777
G1 X55.818 Y35.991 E14.01015
G1 X55.913 Y36.438 E14.03295
G1 X55.952 Y36.72 E14.04715
G1 X55.982 Y37.123 E14.06731
G1 X55.987 Y37.584 E14.09031
G1 X55.987 Y37.618 E14.09201
G1 X55.996 Y58.237 E15.12069
G1 X55.996 Y58.281 E15.12289
G1 X55.984 Y59.166 E15.16704
G1 X55.978 Y59.319 E15.17468
G1 X55.952 Y59.742 E15.19583
G1 X55.829 Y60.446 E15.23148
G1 X55.737 Y60.76 E15.24781
G1 X55.705 Y60.861 E15.25309
G1 X55.651 Y61.025 E15.26171
G1 X55.346 Y61.687 E15.29807
G1 X55.121 Y62.057 E15.31967
G1 X54.683 Y62.623 E15.35538
G1 X54.315 Y63.002 E15.38174
G1 X53.935 Y63.336 E15.40698
G1 X53.642 Y63.531 E15.42454
G1 X53.19 Y63.797 E15.4507
G1 X52.735 Y64.018 E15.47594
G1 X52.452 Y64.114 E15.49085
G1 X52.014 Y64.24 E15.51358
G1 X51.556 Y64.336 E15.53693
G1 X51.281 Y64.373 E15.55077
G1 X50.888 Y64.402 E15.57043
G1 X50.416 Y64.407 E15.59398
G1 X50.383 Y64.407 E15.59563
G1 X29.737 Y64.416 E16.62566
G1 X29.691 Y64.416 E16.62796
G1 X28.844 Y64.404 E16.67022
G1 X28.702 Y64.399 E16.67731
G1 X28.276 Y64.374 E16.6986
G1 X27.546 Y64.245 E16.73558
G1 X27.235 Y64.152 E16.75178
G1 X27.146 Y64.124 E16.75643
G1 X26.98 Y64.069 E16.76516
G1 X26.322 Y63.765 E16.80132
G1 X25.949 Y63.538 E16.8231
G1 X25.375 Y63.091 E16.8594
G1 X24.996 Y62.72 E16.88586
G1 X24.663 Y62.339 E16.9111
G1 X24.471 Y62.048 E16.9285
G1 X24.208 Y61.598 E16.9545
G1 X23.988 Y61.142 E16.97976
G1 X23.894 Y60.862 E16.99449
G1 X23.77 Y60.428 E17.01701
G1 X23.675 Y59.974 E17.04015
G1 X23.638 Y59.698 E17.05405
G1 X23.61 Y59.306 E17.07365
G1 X23.605 Y58.814 E17.0982
G1 X23.605 Y58.782 E17.0998
G1 X23.596 Y38.157 E18.12878
G1 X23.596 Y38.111 E18.13108
G1 X23.608 Y37.264 E18.17334
G1 X23.614 Y37.113 E18.18088
G1 X23.64 Y36.69 E18.20202
G1 X23.763 Y35.986 E18.23768
G1 X23.855 Y35.672 E18.254
G1 X23.89 Y35.56 E18.25986
G1 X23.946 Y35.392 E18.26869
G1 X24.249 Y34.739 E18.3046
G1 X24.472 Y34.373 E18.32599
G1 X24.913 Y33.805 E18.36186
G1 X25.29 Y33.418 E18.38882
G1 X25.67 Y33.085 E18.41402
G1 F1500 E11.91402
G0 F3600 X27.299 Y35.056
G0 X36.493 Y46.18
G0 X36.696 Y46.426
;TYPE:SUPPORT
G1 F1500 E18.41402
G1 F1800 X39.796 Y44.636 E18.59262
G1 X42.896 Y46.426 E18.77121
G1 X42.896 Y50.006 E18.94981
G1 X39.796 Y51.796 E19.1284
G1 X36.696 Y50.006 E19.307
G1 X36.696 Y46.426 E19.4856
G0 F3600 X37.338 Y46.239
G1 F1800 X37.338 Y50.192 E19.68282
G0 F3600 X38.17 Y50.673
G1 F1800 X41.421 Y50.673 E19.84501
G0 F3600 X42.672 Y49.951
G1 F1800 X42.672 Y46.482 E20.01808
G0 F3600 X42.736 Y48.006
G1 F1800 X36.856 Y48.006 E20.31143
G0 F3600 X38.899 Y45.339
G1 F1800 X40.694 Y45.339 E20.40099
G0 F3600 X40.005 Y44.942
G1 F1800 X40.005 Y51.491 E20.72772
G1 F1500 E14.22772
;MESH:1_2_prova_tolleranze_connettore.stl
G0 F3600 X43.042 Y46.239
G0 X43.673 Y45.143
G0 X39.796 Y42.804
G0 X39.796 Y42.904
;TYPE:WALL-INNER
G1 F1500 E20.72772
G1 F1800 X35.797 Y45.214 E20.95812
G1 X35.196 Y45.561 E20.99275
G1 X35.196 Y50.871 E21.25766
G1 X39.796 Y53.528 E21.52269
G1 X44.396 Y50.871 E21.78772
G1 X44.396 Y45.561 E22.05264
G1 X39.796 Y42.904 E22.31766
G0 F3600 X39.796 Y42.804
G0 X51.338 Y36.039
G0 X51.38 Y35.949
G1 F1800 X51.69 Y36.146 E22.33599
G1 X51.935 Y36.413 E22.35407
G1 X52.105 Y36.736 E22.37228
G1 X52.187 Y37.103 E22.39104
G1 X52.196 Y58.923 E23.47964
G1 X52.171 Y59.452 E23.50606
G1 X52.063 Y59.802 E23.52434
G1 X51.869 Y60.107 E23.54237
G1 X51.599 Y60.355 E23.56066
G1 X51.276 Y60.525 E23.57887
G1 X50.909 Y60.607 E23.59763
G1 X29.089 Y60.616 E24.68624
G1 X28.56 Y60.591 E24.71266
G1 X28.212 Y60.483 E24.73084
G1 X27.902 Y60.286 E24.74916
G1 X27.657 Y60.019 E24.76724
G1 X27.487 Y59.696 E24.78545
G1 X27.405 Y59.329 E24.80421
G1 X27.396 Y37.509 E25.89282
G1 X27.421 Y36.98 E25.91924
G1 X27.529 Y36.632 E25.93742
G1 X27.726 Y36.322 E25.95574
G1 X27.993 Y36.077 E25.97382
G1 X28.316 Y35.907 E25.99203
G1 X28.683 Y35.825 E26.01079
G1 X50.503 Y35.816 E27.0994
G1 X51.032 Y35.841 E27.12582
G1 X51.38 Y35.949 E27.144
G0 F3600 X51.551 Y35.583
;TYPE:WALL-OUTER
G1 F1800 X51.949 Y35.836 E27.16752
G1 X52.264 Y36.179 E27.19076
G1 X52.483 Y36.597 E27.2143
G1 X52.587 Y37.059 E27.23793
G1 X52.596 Y58.942 E28.32967
G1 X52.569 Y59.521 E28.35859
G1 X52.429 Y59.971 E28.3821
G1 X52.177 Y60.368 E28.40556
G1 X51.833 Y60.684 E28.42887
G1 X51.415 Y60.903 E28.45241
G1 X50.953 Y61.007 E28.47604
G1 X29.07 Y61.016 E29.56778
G1 X28.491 Y60.989 E29.5967
G1 X28.041 Y60.849 E29.62021
G1 X27.643 Y60.596 E29.64374
G1 X27.328 Y60.253 E29.66698
G1 X27.109 Y59.835 E29.69052
G1 X27.005 Y59.373 E29.71415
G1 X26.996 Y37.49 E30.80589
G1 X27.023 Y36.911 E30.83481
G1 X27.163 Y36.461 E30.85832
G1 X27.416 Y36.063 E30.88185
G1 X27.759 Y35.748 E30.90509
G1 X28.177 Y35.529 E30.92863
G1 X28.639 Y35.425 E30.95225
G1 X50.522 Y35.416 E32.044
G1 X51.101 Y35.443 E32.07292
G1 X51.551 Y35.583 E32.09643
G0 F3600 X51.72 Y35.69
G0 X51.452 Y36.112
G0 X44.43 Y50.89
G0 X39.796 Y53.568
G0 X39.796 Y53.066
G1 F1800 X43.996 Y50.64 E32.33841
G1 X43.996 Y45.792 E32.58028
G1 X39.796 Y43.366 E32.82226
G1 X35.997 Y45.56 E33.04113
G1 X35.596 Y45.792 E33.06425
G1 X35.596 Y50.64 E33.30612
G1 X39.796 Y53.066 E33.5481
G0 F3600 X39.969 Y52.966
G0 X40.218 Y53.399
G0 X39.796 Y53.978
;TYPE:SKIN
G1 F1800 X44.786 Y51.096 E33.83559
G1 X44.786 Y45.336 E34.12296
G1 X39.796 Y42.454 E34.41045
G1 X35.602 Y44.876 E34.65207
G1 X34.806 Y45.336 E34.69794
G1 X34.806 Y51.096 E34.98531
G1 X39.796 Y53.978 E35.2728
G0 F3600 X29.107 Y60.226
G1 F1800 X28.624 Y60.203 E35.29692
G1 X28.378 Y60.127 E35.30977
G1 X28.153 Y59.983 E35.32309
G1 X27.98 Y59.795 E35.33584
G1 X27.855 Y59.558 E35.34921
G1 X27.795 Y59.288 E35.36301
G1 X27.786 Y37.527 E36.44867
G1 X27.809 Y37.044 E36.47279
G1 X27.885 Y36.798 E36.48564
G1 X28.029 Y36.573 E36.49896
G1 X28.217 Y36.4 E36.51171
G1 X28.454 Y36.275 E36.52508
G1 X28.724 Y36.215 E36.53888
G1 X50.485 Y36.206 E37.62454
G1 X50.968 Y36.229 E37.64866
G1 X51.214 Y36.305 E37.66151
G1 X51.439 Y36.449 E37.67483
G1 X51.612 Y36.637 E37.68758
G1 X51.737 Y36.874 E37.70095
G1 X51.797 Y37.144 E37.71475
G1 X51.806 Y58.905 E38.80041
G1 X51.783 Y59.384 E38.82433
G1 X51.705 Y59.639 E38.83764
G1 X51.568 Y59.854 E38.85036
G1 X51.371 Y60.035 E38.8637
G1 X51.14 Y60.157 E38.87674
G1 X50.868 Y60.217 E38.89063
G1 X29.107 Y60.226 E39.97629
G0 F3600 X28.922 Y60.035
G1 F1800 X27.973 Y59.086 E40.04325
G0 F3600 X27.973 Y58.52
G1 F1800 X29.497 Y60.044 E40.15078
G0 F3600 X30.063 Y60.044
G1 F1800 X27.973 Y57.955 E40.2982
G0 F3600 X27.973 Y57.388
G1 F1800 X30.629 Y60.044 E40.4856
G0 F3600 X31.194 Y60.043
G1 F1800 X27.973 Y56.823 E40.71282
G0 F3600 X27.973 Y56.257
G1 F1800 X31.759 Y60.043 E40.97994
G0 F3600 X32.325 Y60.043
G1 F1800 X27.973 Y55.691 E41.287
G0 F3600 X27.972 Y55.125
G1 F1800 X32.89 Y60.043 E41.63399
G0 F3600 X33.456 Y60.043
G1 F1800 X27.972 Y54.559 E42.02092
G0 F3600 X27.972 Y53.993
G1 F1800 X34.021 Y60.043 E42.44774
G0 F3600 X34.586 Y60.042
G1 F1800 X27.971 Y53.427 E42.91447
G0 F3600 X27.971 Y52.861
G1 F1800 X35.152 Y60.042 E43.42113
G0 F3600 X35.718 Y60.042
G1 F1800 X27.971 Y52.296 E43.96768
G0 F3600 X27.971 Y51.729
G1 F1800 X36.283 Y60.041 E44.55414
G0 F3600 X36.848 Y60.041
G1 F1800 X27.971 Y51.164 E45.18046
G0 F3600 X27.971 Y50.598
G1 F1800 X37.414 Y60.041 E45.84671
G0 F3600 X37.979 Y60.041
G1 F1800 X27.97 Y50.032 E46.5529
G0 F3600 X27.97 Y49.466
G1 F1800 X38.545 Y60.041 E47.29903
G0 F3600 X39.11 Y60.041
G1 F1800 X27.97 Y48.9 E48.08505
G0 F3600 X27.969 Y48.334
G1 F1800 X39.675 Y60.04 E48.91097
G0 F3600 X40.241 Y60.04
G1 F1800 X27.969 Y47.768 E49.77683
G0 F3600 X27.969 Y47.202
G1 F1800 X40.807 Y60.04 E50.68262
G0 F3600 X41.372 Y60.039
G1 F1800 X27.969 Y46.637 E51.62824
G0 F3600 X27.968 Y46.07
G1 F1800 X41.937 Y60.039 E52.61382
G0 F3600 X42.502 Y60.039
G1 F1800 X27.968 Y45.505 E53.63928
G0 F3600 X27.968 Y44.939
G1 F1800 X43.068 Y60.039 E54.70466
G0 F3600 X43.634 Y60.039
G1 F1800 X35.025 Y51.429 E55.31211
G0 F3600 X34.626 Y51.031
G1 F1800 X27.968 Y44.373 E55.78187
G0 F3600 X27.968 Y43.807
G1 F1800 X34.626 Y50.465 E56.25163
G0 F3600 X34.626 Y49.899
G1 F1800 X27.968 Y43.241 E56.72138
G0 F3600 X27.967 Y42.675
G1 F1800 X34.626 Y49.334 E57.19121
G0 F3600 X34.626 Y48.768
G1 F1800 X27.967 Y42.109 E57.66104
G0 F3600 X27.967 Y41.543
G1 F1800 X34.626 Y48.202 E58.13087
G0 F3600 X34.626 Y47.637
G1 F1800 X27.966 Y40.977 E58.60077
G0 F3600 X27.966 Y40.411
G1 F1800 X34.626 Y47.071 E59.07067
G0 F3600 X34.626 Y46.505
G1 F1800 X27.966 Y39.846 E59.54053
G0 F3600 X27.966 Y39.279
G1 F1800 X34.626 Y45.94 E60.01046
G0 F3600 X34.626 Y45.374
G1 F1800 X27.966 Y38.714 E60.48036
G0 F3600 X27.966 Y38.148
G1 F1800 X34.893 Y45.075 E60.9691
G0 F3600 X35.252 Y44.868
G1 F1800 X27.966 Y37.582 E61.48317
G0 F3600 X27.995 Y37.046
G1 F1800 X35.61 Y44.661 E62.02045
G0 F3600 X35.969 Y44.454
G1 F1800 X28.186 Y36.671 E62.56958
G0 F3600 X28.523 Y36.443
G1 F1800 X36.328 Y44.247 E63.12023
G0 F3600 X36.686 Y44.04
