;FLAVOR:Marlin
;TIME:540
;Filament used: 0.926123m
;Layer height: 0.3
;MINX:22.161
;MINY:22.884
;MINZ:0.3
;MAXX:57.161
;MAXY:50.884
;MAXZ:18
;Generated with Cura_SteamEngine 4.3.0
M140 S60
M105
M190 S60
M104 S200
M105
M109 S200
M82 ;absolute extrusion mode
G28 ;Home
G1 Z15.0 F6000 ;Move the platform down 15mm
;Prime the extruder
G92 E0
G1 F200 E3
G92 E0
G92 E0
G92 E0
G1 F1500 E-6.5
;LAYER_COUNT:60
;LAYER:0
M107 P1
G0 F3600 X23.567 Y23.856 Z0.3
;TYPE:SKIRT
G1 F1500 E0
G1 F1800 X24.021 Y23.519 E0.02821
G1 X24.518 Y23.25 E0.0564
G1 X25.048 Y23.053 E0.08461
G1 X25.601 Y22.934 E0.11283
G1 X26.058 Y22.895 E0.13572
G1 X26.379 Y22.886 E0.15174
G1 X26.491 Y22.884 E0.15733
G1 X52.511 Y22.884 E1.45547
G1 X53.209 Y22.894 E1.4903
G1 X53.773 Y22.942 E1.51853
G1 X54.323 Y23.069 E1.5467
G1 X54.851 Y23.273 E1.57494
G1 X55.345 Y23.548 E1.60314
G1 X55.794 Y23.891 E1.63133
G1 X56.191 Y24.293 E1.65952
G1 X56.528 Y24.748 E1.68777
G1 X56.796 Y25.245 E1.71594
G1 X56.992 Y25.775 E1.74413
G1 X57.112 Y26.328 E1.77236
G1 X57.15 Y26.782 E1.79509
G1 X57.159 Y27.102 E1.81106
G1 X57.161 Y27.214 E1.81665
G1 X57.161 Y46.198 E2.76377
G1 X57.152 Y46.925 E2.80004
G1 X57.105 Y47.488 E2.82823
G1 X56.979 Y48.039 E2.85643
G1 X56.777 Y48.567 E2.88463
G1 X56.502 Y49.061 E2.91284
G1 X56.16 Y49.511 E2.94103
G1 X55.758 Y49.909 E2.96926
G1 X55.305 Y50.246 E2.99743
G1 X54.808 Y50.516 E3.02564
G1 X54.278 Y50.713 E3.05385
G1 X53.726 Y50.834 E3.08205
G1 X53.264 Y50.873 E3.10518
G1 X52.943 Y50.882 E3.1212
G1 X52.831 Y50.884 E3.12679
G1 X26.816 Y50.884 E4.42468
G1 X26.118 Y50.875 E4.45951
G1 X25.555 Y50.827 E4.4877
G1 X25.004 Y50.701 E4.5159
G1 X24.476 Y50.499 E4.5441
G1 X23.982 Y50.224 E4.57231
G1 X23.532 Y49.882 E4.60051
G1 X23.134 Y49.48 E4.62873
G1 X22.798 Y49.026 E4.65691
G1 X22.528 Y48.529 E4.68513
G1 X22.331 Y47.999 E4.71333
G1 X22.211 Y47.447 E4.74152
G1 X22.171 Y46.983 E4.76475
G1 X22.162 Y46.65 E4.78137
G1 X22.161 Y46.542 E4.78676
G1 X22.161 Y27.504 E5.73657
G1 X22.17 Y26.839 E5.76975
G1 X22.218 Y26.276 E5.79794
G1 X22.344 Y25.725 E5.82614
G1 X22.547 Y25.197 E5.85436
G1 X22.823 Y24.703 E5.88259
G1 X23.165 Y24.253 E5.91079
G1 X23.567 Y23.856 E5.93898
G0 F3600 X23.955 Y24.055
G1 F1800 X24.402 Y23.757 E5.96578
G1 X24.887 Y23.529 E5.99252
G1 X25.401 Y23.376 E6.01927
G1 X26.069 Y23.294 E6.05285
G1 X26.39 Y23.285 E6.06887
G1 X26.491 Y23.284 E6.07391
G1 X52.506 Y23.284 E7.3718
G1 X53.204 Y23.294 E7.40663
G1 X53.738 Y23.342 E7.43338
G1 X54.259 Y23.468 E7.46012
G1 X54.756 Y23.671 E7.48691
G1 X55.217 Y23.945 E7.51366
G1 X55.632 Y24.284 E7.54039
G1 X55.992 Y24.682 E7.56717
G1 X56.289 Y25.128 E7.5939
G1 X56.517 Y25.614 E7.62068
G1 X56.669 Y26.128 E7.64743
G1 X56.751 Y26.793 E7.68085
G1 X56.76 Y27.113 E7.69683
G1 X56.761 Y27.214 E7.70186
G1 X56.761 Y46.193 E8.64873
G1 X56.752 Y46.92 E8.685
G1 X56.705 Y47.454 E8.71175
G1 X56.58 Y47.975 E8.73848
G1 X56.378 Y48.472 E8.76524
G1 X56.105 Y48.934 E8.79202
G1 X55.767 Y49.35 E8.81876
G1 X55.37 Y49.711 E8.84553
G1 X54.924 Y50.009 E8.87229
G1 X54.439 Y50.237 E8.89903
G1 X53.925 Y50.391 E8.9258
G1 X53.253 Y50.474 E8.95958
G1 X52.932 Y50.483 E8.9756
G1 X52.831 Y50.484 E8.98064
G1 X26.822 Y50.484 E10.27823
G1 X26.124 Y50.475 E10.31306
G1 X25.589 Y50.428 E10.33985
G1 X25.068 Y50.302 E10.36659
G1 X24.571 Y50.1 E10.39336
G1 X24.11 Y49.827 E10.42009
G1 X23.694 Y49.488 E10.44686
G1 X23.333 Y49.092 E10.4736
G1 X23.035 Y48.646 E10.50036
G1 X22.807 Y48.16 E10.52714
G1 X22.654 Y47.646 E10.55389
G1 X22.571 Y46.972 E10.58777
G1 X22.562 Y46.639 E10.60439
G1 X22.561 Y46.542 E10.60923
G1 X22.561 Y27.509 E11.55879
G1 X22.57 Y26.844 E11.59197
G1 X22.618 Y26.31 E11.61872
G1 X22.744 Y25.789 E11.64546
G1 X22.946 Y25.292 E11.67223
G1 X23.219 Y24.831 E11.69896
G1 X23.558 Y24.415 E11.72573
G1 X23.955 Y24.055 E11.75247
G0 F3600 X23.95 Y24.588
G1 F1800 X24.341 Y24.267 E11.77771
G1 X24.778 Y24.012 E11.80295
G1 X25.249 Y23.828 E11.82818
G1 X25.743 Y23.722 E11.85338
G1 X26.08 Y23.694 E11.87026
G1 X26.401 Y23.685 E11.88628
G1 X26.491 Y23.684 E11.89077
G1 X52.5 Y23.684 E13.18836
G1 X53.198 Y23.694 E13.22319
G1 X53.701 Y23.741 E13.24839
G1 X54.191 Y23.867 E13.27363
G1 X54.655 Y24.069 E13.29888
G1 X55.081 Y24.341 E13.3241
G1 X55.459 Y24.676 E13.3493
G1 X55.779 Y25.067 E13.3745
G1 X56.034 Y25.504 E13.39975
G1 X56.217 Y25.975 E13.42496
G1 X56.324 Y26.469 E13.45017
G1 X56.351 Y26.804 E13.46694
G1 X56.36 Y27.124 E13.48291
G1 X56.361 Y27.214 E13.4874
G1 X56.361 Y46.188 E14.43402
G1 X56.352 Y46.915 E14.47029
G1 X56.306 Y47.418 E14.49549
G1 X56.181 Y47.908 E14.52072
G1 X55.98 Y48.372 E14.54595
G1 X55.709 Y48.799 E14.57118
G1 X55.374 Y49.178 E14.59641
G1 X54.984 Y49.499 E14.62162
G1 X54.548 Y49.755 E14.64684
G1 X54.077 Y49.938 E14.67205
G1 X53.583 Y50.046 E14.69728
G1 X53.242 Y50.074 E14.71435
G1 X52.921 Y50.083 E14.73037
G1 X52.831 Y50.084 E14.73486
G1 X26.827 Y50.084 E16.0322
G1 X26.129 Y50.075 E16.06703
G1 X25.625 Y50.028 E16.09228
G1 X25.135 Y49.903 E16.11751
G1 X24.671 Y49.702 E16.14274
G1 X24.245 Y49.431 E16.16793
G1 X23.866 Y49.096 E16.19317
G1 X23.545 Y48.705 E16.2184
G1 X23.29 Y48.269 E16.2436
G1 X23.106 Y47.798 E16.26883
G1 X22.999 Y47.304 E16.29405
G1 X22.971 Y46.961 E16.31122
G1 X22.962 Y46.628 E16.32784
G1 X22.961 Y46.542 E16.33213
G1 X22.961 Y27.515 E17.28139
G1 X22.97 Y26.85 E17.31457
G1 X23.017 Y26.346 E17.33982
G1 X23.143 Y25.857 E17.36502
G1 X23.344 Y25.393 E17.39024
G1 X23.615 Y24.966 E17.41547
G1 X23.95 Y24.588 E17.44067
G1 F1500 E10.94067
;MESH:2_11_Connettore_MPU.stl
G0 F3600 X26.775 Y26.219
G0 X26.775 Y27.498
G0 X33.551 Y39.934
G0 X33.517 Y40.028
;TYPE:WALL-INNER
G1 F1500 E17.44067
G1 F1800 X32.884 Y39.891 E17.47299
G1 X30.744 Y39.884 E17.57975
G1 X30.22 Y39.918 E17.60595
G1 X29.603 Y40.113 E17.63823
G1 X29.05 Y40.464 E17.67091
G1 X28.608 Y40.947 E17.70357
G1 X28.306 Y41.527 E17.7362
G1 X28.165 Y42.166 E17.76884
G1 X28.194 Y42.819 E17.80145
G1 X28.39 Y43.442 E17.83404
G1 X28.741 Y43.994 E17.86667
G1 X29.224 Y44.436 E17.89934
G1 X29.805 Y44.739 E17.93203
G1 X30.437 Y44.876 E17.96429
G1 X32.579 Y44.884 E18.07116
G1 X33.102 Y44.849 E18.09731
G1 X33.72 Y44.655 E18.12962
G1 X34.272 Y44.302 E18.16231
G1 X34.712 Y43.82 E18.19487
G1 X35.015 Y43.24 E18.22752
G1 X35.156 Y42.602 E18.26012
G1 X35.128 Y41.949 E18.29273
G1 X34.932 Y41.326 E18.32531
G1 X34.58 Y40.773 E18.35801
G1 X34.098 Y40.332 E18.39061
G1 X33.517 Y40.028 E18.42332
G0 F3600 X33.551 Y39.934
G0 X30.213 Y39.879
G0 X29.025 Y40.434
G0 X28.328 Y41.402
G0 X26.831 Y46.214
G0 X26.761 Y46.284
G1 F1800 X26.761 Y27.484 E19.36126
G1 X52.561 Y27.484 E20.64842
G1 X52.561 Y46.284 E21.58636
G1 X26.761 Y46.284 E22.87353
G0 F3600 X26.831 Y46.214
G0 X33.109 Y44.888
G0 X45.025 Y40.434
G0 X46.213 Y39.879
G0 X48.379 Y39.858
G0 X49.551 Y39.934
G0 X49.517 Y40.028
G1 F1800 X48.884 Y39.891 E22.90584
G1 X46.744 Y39.884 E23.0126
G1 X46.22 Y39.918 E23.0388
G1 X45.603 Y40.113 E23.07108
G1 X45.05 Y40.464 E23.10376
G1 X44.608 Y40.947 E23.13643
G1 X44.306 Y41.527 E23.16905
G1 X44.165 Y42.166 E23.2017
G1 X44.194 Y42.819 E23.23431
G1 X44.39 Y43.442 E23.26689
G1 X44.741 Y43.994 E23.29953
G1 X45.224 Y44.436 E23.33219
G1 X45.805 Y44.739 E23.36488
G1 X46.437 Y44.876 E23.39714
G1 X48.579 Y44.884 E23.50401
G1 X49.102 Y44.849 E23.53016
G1 X49.72 Y44.655 E23.56248
G1 X50.272 Y44.302 E23.59516
G1 X50.712 Y43.82 E23.62772
G1 X51.015 Y43.24 E23.66037
G1 X51.156 Y42.602 E23.69297
G1 X51.128 Y41.949 E23.72558
G1 X50.932 Y41.325 E23.75821
G1 X50.579 Y40.773 E23.7909
G1 X50.098 Y40.332 E23.82345
G1 X49.517 Y40.028 E23.85617
G0 F3600 X49.38 Y40.408
;TYPE:WALL-OUTER
G1 F1800 X48.84 Y40.291 E23.88373
G1 X46.756 Y40.284 E23.98771
G1 X46.294 Y40.314 E24.0108
G1 X45.773 Y40.479 E24.03807
G1 X45.309 Y40.773 E24.06547
G1 X44.939 Y41.178 E24.09284
G1 X44.685 Y41.665 E24.12025
G1 X44.567 Y42.201 E24.14763
G1 X44.591 Y42.749 E24.17499
G1 X44.756 Y43.272 E24.20235
G1 X45.05 Y43.735 E24.22972
G1 X45.455 Y44.105 E24.25708
G1 X45.942 Y44.359 E24.28449
G1 X46.481 Y44.476 E24.312
G1 X48.566 Y44.484 E24.41603
G1 X49.028 Y44.453 E24.43913
G1 X49.549 Y44.289 E24.46638
G1 X50.012 Y43.993 E24.49379
G1 X50.382 Y43.589 E24.52112
G1 X50.636 Y43.102 E24.54853
G1 X50.754 Y42.567 E24.57586
G1 X50.731 Y42.019 E24.60322
G1 X50.566 Y41.496 E24.63058
G1 X50.27 Y41.032 E24.65804
G1 X49.866 Y40.662 E24.68537
G1 X49.38 Y40.408 E24.71273
G0 F3600 X49.185 Y40.366
G0 X49.291 Y39.878
G0 X33.611 Y39.966
G0 X33.38 Y40.408
G1 F1800 X32.84 Y40.291 E24.7403
G1 X30.756 Y40.284 E24.84427
G1 X30.294 Y40.314 E24.86737
G1 X29.773 Y40.479 E24.89463
G1 X29.309 Y40.773 E24.92204
G1 X28.939 Y41.178 E24.9494
G1 X28.685 Y41.665 E24.97681
G1 X28.567 Y42.201 E25.00419
G1 X28.591 Y42.749 E25.03156
G1 X28.756 Y43.272 E25.05892
G1 X29.05 Y43.735 E25.08628
G1 X29.455 Y44.105 E25.11365
G1 X29.942 Y44.359 E25.14105
G1 X30.481 Y44.476 E25.16857
G1 X32.566 Y44.484 E25.27259
G1 X33.028 Y44.453 E25.29569
G1 X33.549 Y44.289 E25.32294
G1 X34.012 Y43.993 E25.35036
G1 X34.382 Y43.589 E25.37769
G1 X34.636 Y43.102 E25.40509
G1 X34.754 Y42.567 E25.43242
G1 X34.731 Y42.019 E25.45979
G1 X34.566 Y41.496 E25.48715
G1 X34.271 Y41.032 E25.51458
G1 X33.867 Y40.662 E25.54191
G1 X33.38 Y40.408 E25.56931
G0 F3600 X33.185 Y40.366
G0 X33.291 Y39.878
G0 X30.213 Y39.879
G0 X29.025 Y40.434
G0 X28.328 Y41.402
G0 X26.831 Y46.214
G0 X26.361 Y46.684
G1 F1800 X26.361 Y27.084 E26.54716
G1 X52.961 Y27.084 E27.87424
G1 X52.961 Y46.684 E28.85209
G1 X26.361 Y46.684 E30.17917
G0 F3600 X26.361 Y46.484
G0 X27.151 Y45.894
;TYPE:SKIN
G1 F1800 X27.151 Y27.874 E31.07819
G1 X52.171 Y27.874 E32.32644
G1 X52.171 Y45.894 E33.22546
G1 X27.151 Y45.894 E34.47371
G0 F3600 X28.439 Y44.247
G1 F1800 X28.998 Y44.758 E34.5115
G1 X29.671 Y45.109 E34.54937
G1 X30.394 Y45.266 E34.58628
G1 X32.591 Y45.274 E34.69589
G1 X33.174 Y45.235 E34.72504
G1 X33.886 Y45.012 E34.76226
G1 X34.525 Y44.603 E34.80011
G1 X35.034 Y44.046 E34.83776
G1 X35.385 Y43.375 E34.87554
G1 X35.548 Y42.637 E34.91324
G1 X35.516 Y41.881 E34.951
G1 X35.289 Y41.16 E34.98871
G1 X34.882 Y40.52 E35.02655
G1 X34.324 Y40.01 E35.06426
G1 X33.651 Y39.658 E35.10215
G1 X32.927 Y39.501 E35.13911
G1 X30.732 Y39.494 E35.24862
G1 X30.148 Y39.532 E35.27782
G1 X29.437 Y39.756 E35.31501
G1 X28.797 Y40.162 E35.35282
G1 X28.286 Y40.721 E35.39061
G1 X27.936 Y41.393 E35.42841
G1 X27.773 Y42.132 E35.46616
G1 X27.806 Y42.887 E35.50387
G1 X28.033 Y43.608 E35.54158
G1 X28.439 Y44.247 E35.57935
G0 F3600 X29.792 Y44.776
G0 X33.109 Y44.888
G0 X43.806 Y42.887
G1 F1800 X44.033 Y43.608 E35.61706
G1 X44.439 Y44.247 E35.65483
G1 X44.998 Y44.758 E35.69262
G1 X45.671 Y45.109 E35.73048
G1 X46.394 Y45.266 E35.76739
G1 X48.591 Y45.274 E35.877
G1 X49.174 Y45.235 E35.90616
G1 X49.886 Y45.012 E35.94338
G1 X50.525 Y44.603 E35.98123
G1 X51.034 Y44.046 E36.01887
G1 X51.385 Y43.375 E36.05665
G1 X51.548 Y42.637 E36.09436
G1 X51.516 Y41.881 E36.13211
G1 X51.289 Y41.159 E36.16987
G1 X50.88 Y40.52 E36.20772
G1 X50.324 Y40.01 E36.24536
G1 X49.651 Y39.658 E36.28325
G1 X48.927 Y39.501 E36.32021
G1 X46.732 Y39.494 E36.42972
G1 X46.148 Y39.532 E36.45892
G1 X45.437 Y39.756 E36.49611
G1 X44.797 Y40.162 E36.53392
G1 X44.286 Y40.721 E36.57171
G1 X43.936 Y41.393 E36.60951
G1 X43.773 Y42.132 E36.64726
G1 X43.806 Y42.887 E36.68497
G0 F3600 X34.179 Y44.687
G0 X27.611 Y45.713
G1 F1800 X27.331 Y45.433 E36.70472
G0 F3600 X27.331 Y44.867
G1 F1800 X28.176 Y45.713 E36.76438
G0 F3600 X28.742 Y45.713
G1 F1800 X27.331 Y44.301 E36.86397
G0 F3600 X27.331 Y43.735
G1 F1800 X29.308 Y45.713 E37.00349
G0 F3600 X29.873 Y45.713
G1 F1800 X29.255 Y45.094 E37.04713
G1 X29.185 Y45.024
G0 F3600 X30.116 Y45.389
G1 F1800 X30.439 Y45.713 E37.06995
G0 F3600 X30.739 Y45.447
G1 F1800 X31.005 Y45.713 E37.08872
G0 F3600 X31.307 Y45.449
G1 F1800 X31.57 Y45.713 E37.10731
G0 F3600 X31.874 Y45.45
G1 F1800 X32.136 Y45.713 E37.12583
G0 F3600 X32.442 Y45.452
G1 F1800 X32.702 Y45.713 E37.14421
G0 F3600 X32.982 Y45.428
G1 F1800 X33.267 Y45.713 E37.16432
G0 F3600 X33.456 Y45.335
G1 F1800 X33.833 Y45.713 E37.19096
G0 F3600 X33.886 Y45.2
G1 F1800 X34.399 Y45.713 E37.22715
G0 F3600 X34.965 Y45.713
G1 F1800 X34.246 Y44.994 E37.27788
G0 F3600 X34.59 Y44.773
G1 F1800 X35.53 Y45.713 E37.3442
G0 F3600 X36.096 Y45.713
G1 F1800 X34.871 Y44.488 E37.43063
G0 F3600 X35.141 Y44.192
G1 F1800 X36.662 Y45.713 E37.53795
G0 F3600 X37.227 Y45.713
G1 F1800 X35.347 Y43.832 E37.67063
G0 F3600 X35.542 Y43.461
G1 F1800 X37.793 Y45.713 E37.82948
G0 F3600 X38.359 Y45.713
G1 F1800 X35.65 Y43.004 E38.02062
G0 F3600 X35.723 Y42.511
G1 F1800 X38.924 Y45.713 E38.2465
G0 F3600 X39.49 Y45.713
G1 F1800 X35.697 Y41.92 E38.51412
G1 X35.627 Y41.85
G0 F3600 X35.467 Y41.123
G1 F1800 X40.056 Y45.713 E38.83793
G0 F3600 X40.621 Y45.713
G1 F1800 X27.331 Y32.422 E39.77565
G0 F3600 X27.331 Y32.987
G1 F1800 X33.956 Y39.613 E40.24311
G1 X34.026 Y39.683
G0 F3600 X33.139 Y39.361
G1 F1800 X27.331 Y33.553 E40.6529
G0 F3600 X27.331 Y34.119
G1 F1800 X32.53 Y39.318 E41.01972
G0 F3600 X31.962 Y39.316
G1 F1800 X27.331 Y34.685 E41.34646
G0 F3600 X27.331 Y35.25
G1 F1800 X31.395 Y39.315 E41.63323
G0 F3600 X30.827 Y39.313
G1 F1800 X27.331 Y35.816 E41.87993
G0 F3600 X27.331 Y36.382
G1 F1800 X30.29 Y39.341 E42.0887
G0 F3600 X29.826 Y39.443
G1 F1800 X27.331 Y36.947 E42.26477
G0 F3600 X27.331 Y37.513
G1 F1800 X29.396 Y39.578 E42.41047
G0 F3600 X29.043 Y39.791
G1 F1800 X27.331 Y38.079 E42.53126
G0 F3600 X27.331 Y38.644
G1 F1800 X28.696 Y40.01 E42.6276
G0 F3600 X28.423 Y40.302
G1 F1800 X27.331 Y39.21 E42.70465
G0 F3600 X27.331 Y39.776
G1 F1800 X28.153 Y40.598 E42.76265
G0 F3600 X27.955 Y40.966
G1 F1800 X27.331 Y40.341 E42.80671
G0 F3600 X27.331 Y40.907
G1 F1800 X27.763 Y41.34 E42.83722
G0 F3600 X27.331 Y41.473
G1 F1800 X27.662 Y41.804 E42.86058
G0 F3600 X27.331 Y42.038
G1 F1800 X27.6 Y42.308 E42.87959
G0 F3600 X27.331 Y42.604
G1 F1800 X27.625 Y42.899 E42.90037
G0 F3600 X27.331 Y43.17
G1 F1800 X27.911 Y43.75 E42.94129
G1 X27.981 Y43.82
G0 F3600 X27.331 Y31.856
G1 F1800 X41.187 Y45.713 E43.91894
G0 F3600 X41.753 Y45.713
G1 F1800 X27.331 Y31.29 E44.93653
G0 F3600 X27.331 Y30.725
G1 F1800 X42.318 Y45.713 E45.99398
G0 F3600 X42.884 Y45.713
G1 F1800 X27.331 Y30.159 E47.09136
G0 F3600 X27.331 Y29.593
G1 F1800 X43.45 Y45.713 E48.22868
G0 F3600 X44.015 Y45.713
G1 F1800 X27.331 Y29.028 E49.40586
G0 F3600 X27.331 Y28.462
G1 F1800 X44.581 Y45.713 E50.62298
G0 F3600 X45.147 Y45.713
G1 F1800 X27.488 Y28.053 E51.86895
G0 F3600 X28.053 Y28.053
G1 F1800 X44.189 Y44.189 E53.00743
G1 X44.259 Y44.259
G0 F3600 X44.919 Y44.919
G1 F1800 X45.713 Y45.713 E53.06345
G0 F3600 X45.911 Y45.345
G1 F1800 X46.278 Y45.713 E53.08938
G0 F3600 X46.578 Y45.447
G1 F1800 X46.844 Y45.713 E53.10815
G0 F3600 X47.146 Y45.449
G1 F1800 X47.41 Y45.713 E53.12678
G0 F3600 X47.714 Y45.451
G1 F1800 X47.975 Y45.713 E53.14523
G0 F3600 X48.281 Y45.453
G1 F1800 X48.541 Y45.713 E53.16357
G0 F3600 X48.832 Y45.438
G1 F1800 X49.107 Y45.713 E53.18297
G0 F3600 X49.334 Y45.374
G1 F1800 X49.672 Y45.713 E53.20686
G0 F3600 X49.764 Y45.238
G1 F1800 X50.238 Y45.713 E53.24033
G0 F3600 X50.804 Y45.713
G1 F1800 X50.148 Y45.056 E53.28665
G0 F3600 X50.493 Y44.836
G1 F1800 X51.369 Y45.713 E53.3485
G0 F3600 X51.935 Y45.713
G1 F1800 X50.795 Y44.572 E53.42896
G0 F3600 X51.065 Y44.276
G1 F1800 X51.99 Y45.202 E53.49426
G0 F3600 X51.99 Y44.636
G1 F1800 X51.292 Y43.938 E53.54351
G0 F3600 X51.486 Y43.566
G1 F1800 X51.99 Y44.071 E53.57911
G0 F3600 X51.99 Y43.505
G1 F1800 X51.62 Y43.135 E53.60521
G0 F3600 X51.99 Y42.939
G1 F1800 X51.723 Y42.672 E53.62405
G0 F3600 X51.99 Y42.374
G1 F1800 X51.704 Y42.087 E53.64426
G0 F3600 X51.99 Y41.808
G1 F1800 X51.539 Y41.357 E53.67608
G0 F3600 X51.99 Y41.242
G1 F1800 X38.801 Y28.053 E54.60664
G0 F3600 X38.236 Y28.053
G1 F1800 X49.658 Y39.476 E55.41256
G0 F3600 X48.936 Y39.32
G1 F1800 X37.67 Y28.053 E56.20747
G0 F3600 X37.104 Y28.053
G1 F1800 X48.369 Y39.318 E57.00228
G0 F3600 X47.802 Y39.317
G1 F1800 X36.539 Y28.053 E57.79698
G0 F3600 X35.973 Y28.053
G1 F1800 X47.235 Y39.315 E58.59157
G0 F3600 X46.671 Y39.317
G1 F1800 X35.407 Y28.053 E59.38631
G0 F3600 X34.841 Y28.053
G1 F1800 X46.14 Y39.351 E60.18348
G0 F3600 X45.704 Y39.482
G1 F1800 X34.276 Y28.053 E60.98982
G0 F3600 X33.71 Y28.053
