;FLAVOR:Marlin
;TIME:9131
;Filament used: 24.256m
;Layer height: 0.3
;MINX:46.8
;MINY:53.812
;MINZ:0.3
;MAXX:153.2
;MAXY:142.699
;MAXZ:30
;Generated with Cura_SteamEngine 4.3.0
M140 S60
M105
M190 S60
M104 S200
M105
M109 S200
M82 ;absolute extrusion mode
G28 ;Home
G1 Z15.0 F6000 ;Move the platform down 15mm
;Prime the extruder
G92 E0
G1 F200 E3
G92 E0
G92 E0
G92 E0
G1 F1500 E-6.5
;LAYER_COUNT:100
;LAYER:0
M107 P1
G0 F3600 X68.253 Y62.034 Z0.3
;TYPE:SKIRT
G1 F1500 E0
G1 F1800 X68.622 Y61.633 E0.02719
G1 X69.014 Y61.274 E0.05371
G1 X69.373 Y60.99 E0.07654
G1 X69.552 Y60.868 E0.08735
G1 X69.708 Y60.768 E0.0966
G1 X70.013 Y60.585 E0.11434
G1 X70.496 Y60.348 E0.14118
G1 X71.011 Y60.147 E0.16876
G1 X71.581 Y59.983 E0.19835
G1 X72.143 Y59.877 E0.22689
G1 X72.236 Y59.861 E0.2316
G1 X75.013 Y59.422 E0.37186
G1 X77.683 Y58.921 E0.50739
G1 X80.346 Y58.344 E0.64333
G1 X83.015 Y57.686 E0.78048
G1 X85.65 Y56.956 E0.91689
G1 X88.29 Y56.145 E1.05467
G1 X89.868 Y55.619 E1.13766
G1 X90.908 Y55.263 E1.1925
G1 X91.006 Y55.231 E1.19764
G1 X91.851 Y54.972 E1.24174
G1 X91.955 Y54.943 E1.24712
G1 X92.818 Y54.71 E1.29172
G1 X92.919 Y54.684 E1.29692
G1 X93.743 Y54.49 E1.33916
G1 X93.841 Y54.469 E1.34416
G1 X94.641 Y54.307 E1.38488
G1 X94.752 Y54.286 E1.39052
G1 X95.643 Y54.138 E1.43558
G1 X95.746 Y54.123 E1.44077
G1 X96.568 Y54.014 E1.48214
G1 X96.671 Y54.002 E1.48731
G1 X97.563 Y53.913 E1.53204
G1 X97.67 Y53.904 E1.53739
G1 X98.473 Y53.851 E1.57754
G1 X98.579 Y53.846 E1.58284
G1 X99.522 Y53.815 E1.62991
G1 X99.622 Y53.813 E1.6349
G1 X100.32 Y53.812 E1.66972
G1 X100.428 Y53.814 E1.67511
G1 X101.455 Y53.847 E1.72637
G1 X101.562 Y53.852 E1.73172
G1 X102.322 Y53.902 E1.76972
G1 X102.429 Y53.911 E1.77507
G1 X103.322 Y54 E1.81985
G1 X103.426 Y54.012 E1.82507
G1 X104.248 Y54.121 E1.86644
G1 X104.352 Y54.136 E1.87168
G1 X105.223 Y54.281 E1.91573
G1 X105.328 Y54.301 E1.92106
G1 X106.19 Y54.474 E1.96493
G1 X106.294 Y54.496 E1.97023
G1 X107.054 Y54.675 E2.00919
G1 X107.156 Y54.701 E2.01444
G1 X108.046 Y54.942 E2.06044
G1 X108.146 Y54.971 E2.06563
G1 X108.976 Y55.225 E2.10894
G1 X109.074 Y55.257 E2.11408
G1 X110.153 Y55.625 E2.17096
G1 X112.821 Y56.494 E2.31095
G1 X115.42 Y57.261 E2.44614
G1 X118.054 Y57.956 E2.58205
G1 X120.742 Y58.586 E2.71979
G1 X123.457 Y59.142 E2.85805
G1 X126.923 Y59.733 E3.03346
G1 X127.934 Y59.887 E3.08449
G1 X128.069 Y59.911 E3.09133
G1 X128.405 Y59.977 E3.10841
G1 X128.915 Y60.122 E3.13486
G1 X129.388 Y60.3 E3.16008
G1 X129.877 Y60.533 E3.1871
G1 X130.388 Y60.832 E3.21664
G1 X130.908 Y61.212 E3.24877
G1 X131.344 Y61.603 E3.27799
G1 X131.759 Y62.052 E3.30849
G1 X132.078 Y62.473 E3.33484
G1 X132.38 Y62.957 E3.36331
G1 X132.637 Y63.463 E3.39162
G1 X132.741 Y63.689 E3.40403
G1 X133.179 Y64.749 E3.46125
G1 X134.284 Y67.315 E3.60064
G1 X135.433 Y69.789 E3.73673
G1 X136.651 Y72.23 E3.87283
G1 X137.943 Y74.646 E4.00951
G1 X139.305 Y77.027 E4.14636
G1 X140.735 Y79.37 E4.28331
G1 X142.23 Y81.673 E4.42029
G1 X143.788 Y83.926 E4.55695
G1 X145.397 Y86.123 E4.69281
G1 X147.081 Y88.287 E4.82961
G1 X148.813 Y90.39 E4.96553
G1 X150.62 Y92.458 E5.10254
G1 X151.749 Y93.677 E5.18544
G1 X151.773 Y93.703 E5.1872
G1 X152.352 Y94.342 E5.23022
G1 X152.661 Y94.743 E5.25548
G1 X152.903 Y95.187 E5.28071
G1 X153.072 Y95.663 E5.30591
G1 X153.176 Y96.318 E5.339
G1 X153.195 Y96.669 E5.35653
G1 X153.2 Y96.842 E5.36517
G1 X153.2 Y110.817 E6.06238
G1 X153.19 Y111.541 E6.09851
G1 X153.187 Y111.635 E6.1032
G1 X153.162 Y112.215 E6.13216
G1 X153.16 Y112.256 E6.13421
G1 X153.069 Y113.879 E6.21531
G1 X152.991 Y116.637 E6.35296
G1 X152.991 Y119.355 E6.48856
G1 X153.069 Y122.122 E6.62666
G1 X153.14 Y123.526 E6.6968
G1 X153.185 Y124.308 E6.73588
G1 X153.189 Y124.401 E6.74052
G1 X153.199 Y124.751 E6.75799
G1 X153.2 Y124.842 E6.76253
G1 X153.2 Y138.803 E7.45905
G1 X153.191 Y139.53 E7.49532
G1 X153.145 Y140.033 E7.52052
G1 X153.02 Y140.523 E7.54575
G1 X152.819 Y140.987 E7.57098
G1 X152.548 Y141.414 E7.59621
G1 X152.213 Y141.793 E7.62144
G1 X151.823 Y142.114 E7.64664
G1 X151.387 Y142.37 E7.67187
G1 X150.916 Y142.553 E7.69708
G1 X150.422 Y142.661 E7.72231
G1 X150.081 Y142.689 E7.73938
G1 X149.76 Y142.698 E7.7554
G1 X149.67 Y142.699 E7.75989
G1 X104.405 Y142.699 E10.01817
G1 X104.322 Y142.698 E10.02231
G1 X102.392 Y142.648 E10.11863
G1 X99.617 Y142.615 E10.25708
G1 X97.005 Y142.672 E10.38743
G1 X96.98 Y142.673 E10.38868
G1 X95.465 Y142.694 E10.46427
G1 X95.421 Y142.694 E10.46646
G1 X50.705 Y142.699 E12.69735
G1 X50.659 Y142.699 E12.69965
G1 X49.963 Y142.689 E12.73438
G1 X49.46 Y142.641 E12.75958
G1 X48.97 Y142.516 E12.78481
G1 X48.506 Y142.314 E12.81006
G1 X48.08 Y142.042 E12.83528
G1 X47.702 Y141.707 E12.86048
G1 X47.382 Y141.316 E12.88568
G1 X47.127 Y140.879 E12.91093
G1 X46.944 Y140.408 E12.93614
G1 X46.837 Y139.913 E12.9614
G1 X46.81 Y139.576 E12.97827
G1 X46.801 Y139.244 E12.99484
G1 X46.8 Y139.157 E12.99918
G1 X46.8 Y125.161 E13.69744
G1 X46.81 Y124.455 E13.73267
G1 X46.813 Y124.365 E13.73716
G1 X46.838 Y123.774 E13.76667
G1 X46.84 Y123.728 E13.76897
G1 X46.932 Y122.103 E13.85017
G1 X47.009 Y119.354 E13.98737
G1 X47.009 Y116.635 E14.12302
G1 X46.929 Y113.844 E14.26232
G1 X46.857 Y112.417 E14.33361
G1 X46.815 Y111.696 E14.36964
G1 X46.811 Y111.605 E14.37418
G1 X46.801 Y111.262 E14.3913
G1 X46.8 Y111.169 E14.39594
G1 X46.8 Y97.16 E15.09486
G1 X46.81 Y96.462 E15.12968
G1 X46.857 Y95.959 E15.15489
G1 X46.983 Y95.469 E15.18013
G1 X47.185 Y95.005 E15.20538
G1 X47.457 Y94.579 E15.23059
G1 X47.658 Y94.338 E15.24625
G1 X48.232 Y93.716 E15.28847
G1 X50.09 Y91.66 E15.42673
G1 X51.847 Y89.604 E15.56165
G1 X53.583 Y87.45 E15.69968
G1 X55.234 Y85.278 E15.83579
G1 X56.83 Y83.053 E15.9724
G1 X58.354 Y80.794 E16.10835
G1 X59.813 Y78.495 E16.24419
G1 X61.223 Y76.125 E16.38178
G1 X62.56 Y73.729 E16.51867
G1 X63.834 Y71.283 E16.65626
G1 X65.012 Y68.86 E16.79067
G1 X66.142 Y66.356 E16.92773
G1 X66.877 Y64.581 E17.02358
G1 X66.89 Y64.55 E17.02525
G1 X67.257 Y63.689 E17.07195
G1 X67.299 Y63.596 E17.07704
G1 X67.39 Y63.4 E17.08782
G1 X67.44 Y63.297 E17.09353
G1 X67.587 Y63.008 E17.10971
G1 X67.804 Y62.644 E17.13085
G1 X67.939 Y62.448 E17.14272
G1 X68.044 Y62.304 E17.15161
G1 X68.253 Y62.034 E17.16865
G1 F1500 E10.66865
;MESH:4_3_Connettore_inf_INF.stl
G0 F3600 X83.159 Y62.334
G0 X83.609 Y63.614
G0 X116.367 Y63.692
G0 X116.4 Y63.598
;TYPE:WALL-INNER
G1 F1500 E17.16865
G1 F1800 X126.669 Y63.6 E17.68097
G1 X127.214 Y63.613 E17.70817
G1 X127.653 Y63.693 E17.73043
G1 X128.063 Y63.851 E17.75235
G1 X128.44 Y64.084 E17.77446
G1 X128.765 Y64.379 E17.79636
G1 X129.039 Y64.742 E17.81905
G1 X129.234 Y65.133 E17.84085
G1 X129.357 Y65.558 E17.86292
G1 X129.4 Y66.024 E17.88627
G1 X129.4 Y82.2 E18.6933
G1 X129.4 Y82.4 E18.70327
G1 X129.2 Y82.4 E18.70973
G1 X115.088 Y82.399 E19.41378
G1 X115.087 Y82.338 E19.41683
G1 X115.042 Y81.671 E19.45018
G1 X114.969 Y81.008 E19.48346
G1 X114.866 Y80.348 E19.51678
G1 X114.734 Y79.691 E19.55022
G1 X114.573 Y79.043 E19.58353
G1 X114.384 Y78.402 E19.61687
G1 X114.166 Y77.771 E19.65018
G1 X113.921 Y77.15 E19.68348
G1 X113.65 Y76.539 E19.71683
G1 X113.35 Y75.942 E19.75016
G1 X113.025 Y75.359 E19.78346
G1 X112.674 Y74.789 E19.81686
G1 X112.298 Y74.237 E19.85018
G1 X111.897 Y73.701 E19.88358
G1 X111.474 Y73.185 E19.91686
G1 X111.029 Y72.687 E19.95018
G1 X110.563 Y72.209 E19.98349
G1 X110.075 Y71.752 E20.01684
G1 X109.568 Y71.317 E20.05017
G1 X109.041 Y70.905 E20.08355
G1 X108.497 Y70.518 E20.11685
G1 X107.936 Y70.155 E20.15019
G1 X107.361 Y69.816 E20.18349
G1 X106.771 Y69.502 E20.21684
G1 X106.166 Y69.216 E20.25022
G1 X105.55 Y68.958 E20.28354
G1 X104.923 Y68.726 E20.31689
G1 X104.288 Y68.522 E20.35017
G1 X103.643 Y68.347 E20.38351
G1 X102.991 Y68.2 E20.41686
G1 X102.334 Y68.082 E20.45016
G1 X101.671 Y67.993 E20.48353
G1 X101.005 Y67.934 E20.51689
G1 X100.338 Y67.905 E20.5502
G1 X99.67 Y67.903 E20.58353
G1 X99.002 Y67.932 E20.61688
G1 X98.336 Y67.991 E20.65024
G1 X97.673 Y68.08 E20.68361
G1 X97.017 Y68.197 E20.71686
G1 X96.365 Y68.344 E20.7502
G1 X95.72 Y68.518 E20.78353
G1 X95.084 Y68.722 E20.81686
G1 X94.457 Y68.954 E20.85021
G1 X93.841 Y69.212 E20.88353
G1 X93.237 Y69.498 E20.91687
G1 X92.646 Y69.811 E20.95023
G1 X92.07 Y70.15 E20.98358
G1 X91.509 Y70.513 E21.01692
G1 X90.965 Y70.9 E21.05022
G1 X90.438 Y71.312 E21.0836
G1 X89.931 Y71.747 E21.11692
G1 X89.443 Y72.203 E21.15025
G1 X88.976 Y72.681 E21.18359
G1 X88.531 Y73.179 E21.2169
G1 X88.108 Y73.695 E21.25019
G1 X87.708 Y74.23 E21.28352
G1 X87.33 Y74.783 E21.31694
G1 X86.979 Y75.352 E21.35029
G1 X86.654 Y75.935 E21.38359
G1 X86.354 Y76.532 E21.41693
G1 X86.083 Y77.143 E21.45027
G1 X85.837 Y77.764 E21.4836
G1 X85.619 Y78.396 E21.51695
G1 X85.43 Y79.037 E21.55029
G1 X85.269 Y79.685 E21.5836
G1 X85.137 Y80.341 E21.61699
G1 X85.034 Y81 E21.65026
G1 X84.961 Y81.663 E21.68354
G1 X84.913 Y82.389 E21.71984
G1 X70.8 Y82.4 E22.42394
G1 X70.6 Y82.4 E22.43392
G1 X70.6 Y82.2 E22.44038
G1 X70.6 Y66.021 E23.24755
G1 X70.642 Y65.565 E23.2704
G1 X70.761 Y65.14 E23.29242
G1 X70.958 Y64.744 E23.31448
G1 X71.225 Y64.39 E23.33661
G1 X71.553 Y64.089 E23.35882
G1 X71.93 Y63.856 E23.38093
G1 X72.339 Y63.697 E23.40282
G1 X72.786 Y63.613 E23.42551
G1 X73.33 Y63.6 E23.45266
G1 X83.603 Y63.596 E23.96518
G1 X84.412 Y62.946 E24.01696
G1 X85.082 Y62.443 E24.05875
G1 X85.769 Y61.962 E24.10059
G1 X86.483 Y61.496 E24.14313
G1 X87.194 Y61.065 E24.18461
G1 X87.931 Y60.651 E24.22679
G1 X88.669 Y60.268 E24.26827
G1 X89.419 Y59.909 E24.30975
G1 X90.197 Y59.569 E24.35211
G1 X90.984 Y59.255 E24.39438
G1 X91.767 Y58.972 E24.43592
G1 X92.568 Y58.712 E24.47793
G1 X93.357 Y58.485 E24.51889
G1 X94.184 Y58.276 E24.56145
G1 X95.002 Y58.098 E24.60322
G1 X95.817 Y57.948 E24.64456
G1 X96.656 Y57.822 E24.68689
G1 X97.483 Y57.726 E24.72842
G1 X98.314 Y57.657 E24.77002
G1 X99.169 Y57.615 E24.81273
G1 X99.998 Y57.601 E24.8541
G1 X100.839 Y57.613 E24.89606
G1 X101.67 Y57.654 E24.93757
G1 X102.512 Y57.723 E24.97972
G1 X103.338 Y57.82 E25.02121
G1 X104.177 Y57.946 E25.06354
G1 X104.992 Y58.095 E25.10487
G1 X105.809 Y58.273 E25.14659
G1 X106.636 Y58.482 E25.18914
G1 X107.435 Y58.712 E25.23062
G1 X108.222 Y58.967 E25.2719
G1 X109.01 Y59.25 E25.31367
G1 X109.801 Y59.566 E25.35617
G1 X110.575 Y59.905 E25.39832
G1 X111.313 Y60.257 E25.43911
G1 X112.074 Y60.653 E25.48191
G1 X112.8 Y61.06 E25.52344
G1 X113.506 Y61.488 E25.56463
G1 X114.219 Y61.953 E25.6071
G1 X114.901 Y62.43 E25.64862
G1 X115.577 Y62.937 E25.69077
G1 X116.4 Y63.598 E25.74344
G0 F3600 X116.367 Y63.692
G0 X83.774 Y63.587
G0 X83.462 Y63.196
;TYPE:WALL-OUTER
G1 F1800 X84.172 Y62.626 E25.78886
G1 X84.853 Y62.115 E25.83134
G1 X85.55 Y61.627 E25.87379
G1 X86.264 Y61.161 E25.91632
G1 X86.998 Y60.716 E25.95915
G1 X87.735 Y60.302 E26.00132
G1 X88.496 Y59.907 E26.0441
G1 X89.259 Y59.542 E26.0863
G1 X90.039 Y59.201 E26.12877
G1 X90.836 Y58.883 E26.17158
G1 X91.631 Y58.596 E26.21374
G1 X92.447 Y58.331 E26.25655
G1 X93.259 Y58.097 E26.29871
G1 X94.091 Y57.887 E26.34152
G1 X94.917 Y57.707 E26.38369
G1 X95.758 Y57.552 E26.42636
G1 X96.597 Y57.426 E26.46869
G1 X97.45 Y57.327 E26.51153
G1 X98.292 Y57.257 E26.55368
G1 X99.149 Y57.215 E26.59649
G1 X99.997 Y57.201 E26.6388
G1 X100.845 Y57.213 E26.68111
G1 X101.702 Y57.256 E26.72392
G1 X102.544 Y57.324 E26.76607
G1 X103.397 Y57.424 E26.80891
G1 X104.236 Y57.55 E26.85124
G1 X105.077 Y57.704 E26.8939
G1 X105.902 Y57.884 E26.93602
G1 X106.734 Y58.094 E26.97883
G1 X107.546 Y58.328 E27.02099
G1 X108.357 Y58.591 E27.06353
G1 X109.158 Y58.879 E27.106
G1 X109.955 Y59.197 E27.14881
G1 X110.735 Y59.538 E27.19128
G1 X111.498 Y59.902 E27.23345
G1 X112.259 Y60.298 E27.27625
G1 X112.996 Y60.711 E27.3184
G1 X113.725 Y61.153 E27.36093
G1 X114.438 Y61.618 E27.4034
G1 X115.141 Y62.11 E27.44621
G1 X115.817 Y62.617 E27.48837
G1 X116.541 Y63.198 E27.53468
G1 X126.679 Y63.2 E28.04047
G1 X127.256 Y63.214 E28.06926
G1 X127.759 Y63.305 E28.09476
G1 X128.245 Y63.493 E28.12076
G1 X128.68 Y63.761 E28.14625
G1 X129.063 Y64.11 E28.1721
G1 X129.379 Y64.527 E28.19821
G1 X129.608 Y64.987 E28.22384
G1 X129.751 Y65.483 E28.2496
G1 X129.8 Y66.008 E28.2759
G1 X129.8 Y82.6 E29.10368
G1 X129.8 Y82.8 E29.11366
G1 X129.6 Y82.8 E29.12012
G1 X114.696 Y82.799 E29.86368
G1 X114.687 Y82.356 E29.88579
G1 X114.643 Y81.706 E29.91829
G1 X114.572 Y81.061 E29.95067
G1 X114.472 Y80.418 E29.98313
G1 X114.344 Y79.779 E30.01564
G1 X114.187 Y79.148 E30.04808
G1 X114.003 Y78.524 E30.08054
G1 X113.791 Y77.91 E30.11295
G1 X113.552 Y77.305 E30.1454
G1 X113.288 Y76.71 E30.17788
G1 X112.996 Y76.129 E30.21032
G1 X112.68 Y75.561 E30.24275
G1 X112.338 Y75.007 E30.27523
G1 X111.972 Y74.469 E30.30769
G1 X111.582 Y73.948 E30.34016
G1 X111.17 Y73.445 E30.3726
G1 X110.737 Y72.96 E30.40503
G1 X110.283 Y72.495 E30.43746
G1 X109.808 Y72.05 E30.46993
G1 X109.314 Y71.627 E30.50238
G1 X108.802 Y71.226 E30.53482
G1 X108.272 Y70.849 E30.56727
G1 X107.726 Y70.495 E30.59974
G1 X107.166 Y70.165 E30.63216
G1 X106.591 Y69.86 E30.66464
G1 X106.003 Y69.581 E30.69711
G1 X105.403 Y69.33 E30.72955
G1 X104.793 Y69.104 E30.76201
G1 X104.174 Y68.906 E30.79443
G1 X103.546 Y68.735 E30.8269
G1 X102.912 Y68.592 E30.85933
G1 X102.272 Y68.477 E30.89177
G1 X101.627 Y68.391 E30.92423
G1 X100.979 Y68.333 E30.95669
G1 X100.329 Y68.305 E30.98915
G1 X99.678 Y68.303 E31.02163
G1 X99.028 Y68.331 E31.05409
G1 X98.38 Y68.389 E31.08655
G1 X97.735 Y68.475 E31.11901
G1 X97.096 Y68.589 E31.15139
G1 X96.461 Y68.732 E31.18387
G1 X95.833 Y68.902 E31.21633
G1 X95.214 Y69.1 E31.24875
G1 X94.604 Y69.326 E31.2812
G1 X94.004 Y69.577 E31.31365
G1 X93.416 Y69.856 E31.34612
G1 X92.841 Y70.16 E31.37857
G1 X92.28 Y70.49 E31.41104
G1 X91.734 Y70.844 E31.44351
G1 X91.204 Y71.221 E31.47596
G1 X90.692 Y71.622 E31.5084
G1 X90.198 Y72.045 E31.54085
G1 X89.723 Y72.489 E31.57329
G1 X89.268 Y72.954 E31.60574
G1 X88.835 Y73.439 E31.63818
G1 X88.423 Y73.942 E31.67062
G1 X88.033 Y74.463 E31.70309
G1 X87.666 Y75.001 E31.73558
G1 X87.324 Y75.555 E31.76806
G1 X87.008 Y76.122 E31.80045
G1 X86.716 Y76.703 E31.83289
G1 X86.452 Y77.298 E31.86536
G1 X86.212 Y77.903 E31.89783
G1 X86 Y78.518 E31.93029
G1 X85.816 Y79.142 E31.96275
G1 X85.659 Y79.773 E31.99519
G1 X85.531 Y80.411 E32.02765
G1 X85.431 Y81.053 E32.06007
G1 X85.359 Y81.699 E32.09249
G1 X85.314 Y82.35 E32.12505
G1 X85.305 Y82.789 E32.14696
G1 X70.4 Y82.8 E32.89057
G1 X70.2 Y82.8 E32.90055
G1 X70.2 Y82.6 E32.90701
G1 X70.2 Y66.007 E33.73484
G1 X70.247 Y65.491 E33.76069
G1 X70.386 Y64.996 E33.78634
G1 X70.617 Y64.532 E33.8122
G1 X70.927 Y64.12 E33.83792
G1 X71.312 Y63.768 E33.86395
G1 X71.751 Y63.496 E33.88971
G1 X72.227 Y63.311 E33.91519
G1 X72.745 Y63.214 E33.94148
G1 X73.32 Y63.2 E33.97018
G1 X83.462 Y63.196 E34.47616
G0 F3600 X83.618 Y63.071
G0 X83.74 Y63.986
;TYPE:SKIN
G1 F1800 X84.646 Y63.258 E34.53415
G1 X85.306 Y62.763 E34.57531
G1 X86.014 Y62.267 E34.61844
G1 X86.663 Y61.843 E34.65711
G1 X87.391 Y61.401 E34.6996
G1 X88.111 Y60.998 E34.74077
G1 X88.871 Y60.602 E34.78352
G1 X89.575 Y60.266 E34.82244
G1 X90.347 Y59.929 E34.86446
G1 X91.123 Y59.619 E34.90615
G1 X91.888 Y59.343 E34.94673
G1 X92.689 Y59.083 E34.98874
G1 X93.458 Y58.862 E35.02866
G1 X94.273 Y58.656 E35.0706
G1 X95.078 Y58.481 E35.1117
G1 X95.881 Y58.334 E35.15243
G1 X96.701 Y58.21 E35.1938
G1 X97.528 Y58.114 E35.23534
G1 X98.333 Y58.047 E35.27564
G1 X99.188 Y58.005 E35.31835
G1 X99.998 Y57.991 E35.35876
G1 X100.82 Y58.003 E35.39978
G1 X101.699 Y58.047 E35.44369
G1 X102.431 Y58.107 E35.48033
G1 X103.293 Y58.208 E35.52363
G1 X104.113 Y58.332 E35.565
G1 X104.916 Y58.478 E35.60572
G1 X105.72 Y58.653 E35.64677
G1 X106.534 Y58.859 E35.68866
G1 X107.32 Y59.085 E35.72947
G1 X108.095 Y59.336 E35.77011
G1 X108.872 Y59.615 E35.8113
G1 X109.651 Y59.926 E35.85314
G1 X110.379 Y60.244 E35.89278
G1 X111.15 Y60.612 E35.9354
G1 X111.888 Y60.996 E35.97691
G1 X112.603 Y61.397 E36.0178
G1 X113.293 Y61.815 E36.05805
G1 X113.995 Y62.273 E36.09987
G1 X114.677 Y62.75 E36.14139
G1 X115.333 Y63.241 E36.18227
G1 X116.263 Y63.988 E36.24178
G1 X126.659 Y63.99 E36.76044
G1 X127.173 Y64.003 E36.78609
G1 X127.549 Y64.071 E36.80516
G1 X127.888 Y64.201 E36.82327
G1 X128.205 Y64.398 E36.84189
G1 X128.474 Y64.642 E36.86001
