;FLAVOR:Marlin
;TIME:6051
;Filament used: 9.51289m
;Layer height: 0.2
;MINX:19.961
;MINY:23.299
;MINZ:0.3
;MAXX:110.039
;MAXY:76.701
;MAXZ:29.1
;Generated with Cura_SteamEngine 4.3.0
M140 S60
M105
M190 S60
M104 S200
M105
M109 S200
M82 ;absolute extrusion mode
G28 ;Home
G1 Z15.0 F6000 ;Move the platform down 15mm
;Prime the extruder
G92 E0
G1 F200 E3
G92 E0
G92 E0
G92 E0
G1 F1500 E-6.5
;LAYER_COUNT:147
;LAYER:0
M107 P1
G0 F3600 X21.021 Y24.247 Z0.3
;TYPE:SKIRT
G1 F1500 E0
G1 F1800 X21.406 Y23.919 E0.02523
G1 X21.837 Y23.656 E0.05042
G1 X22.305 Y23.463 E0.07568
G1 X22.797 Y23.347 E0.1009
G1 X23.228 Y23.31 E0.12248
G1 X23.852 Y23.299 E0.15362
G1 X23.92 Y23.299 E0.15701
G1 X24.473 Y23.301 E0.1846
G1 X56.621 Y23.301 E1.78847
G1 X57.258 Y23.31 E1.82025
G1 X57.439 Y23.318 E1.82929
G1 X58.354 Y23.383 E1.87506
G1 X61.114 Y23.539 E2.01297
G1 X63.867 Y23.617 E2.15037
G1 X66.584 Y23.617 E2.28593
G1 X69.337 Y23.539 E2.42333
G1 X72.075 Y23.384 E2.56015
G1 X72.263 Y23.369 E2.56956
G1 X72.309 Y23.366 E2.57186
G1 X73.063 Y23.317 E2.60955
G1 X73.216 Y23.31 E2.61719
G1 X73.853 Y23.299 E2.64898
G1 X73.92 Y23.299 E2.65232
G1 X74.473 Y23.301 E2.67991
G1 X105.935 Y23.299 E4.24956
G1 X105.98 Y23.299 E4.2518
G1 X106.758 Y23.31 E4.29062
G1 X107.262 Y23.357 E4.31587
G1 X107.751 Y23.483 E4.34107
G1 X108.215 Y23.684 E4.36629
G1 X108.641 Y23.956 E4.39151
G1 X108.915 Y24.188 E4.40942
G1 X109.031 Y24.298 E4.4174
G1 X109.369 Y24.674 E4.44262
G1 X109.644 Y25.098 E4.46784
G1 X109.848 Y25.56 E4.49303
G1 X109.978 Y26.049 E4.51828
G1 X110.028 Y26.558 E4.54379
G1 X110.038 Y27.073 E4.56949
G1 X110.039 Y27.135 E4.57258
G1 X110.038 Y72.65 E6.84334
G1 X110.038 Y72.694 E6.84553
G1 X110.028 Y73.421 E6.8818
G1 X109.981 Y73.924 E6.90701
G1 X109.855 Y74.414 E6.93225
G1 X109.654 Y74.878 E6.95748
G1 X109.382 Y75.304 E6.98269
G1 X109.101 Y75.63 E7.00417
G1 X108.989 Y75.743 E7.0121
G1 X108.606 Y76.073 E7.03733
G1 X108.175 Y76.338 E7.06257
G1 X107.709 Y76.532 E7.08775
G1 X107.217 Y76.651 E7.11301
G1 X106.772 Y76.69 E7.13529
G1 X106.148 Y76.701 E7.16643
G1 X106.08 Y76.701 E7.16982
G1 X105.527 Y76.699 E7.19741
G1 X74.065 Y76.701 E8.76706
G1 X74.02 Y76.701 E8.7693
G1 X73.234 Y76.69 E8.80852
G1 X73.052 Y76.682 E8.81761
G1 X71.854 Y76.597 E8.87753
G1 X69.099 Y76.441 E9.01519
G1 X66.346 Y76.363 E9.1526
G1 X63.63 Y76.363 E9.2881
G1 X60.877 Y76.441 E9.4255
G1 X58.118 Y76.597 E9.56337
G1 X57.604 Y76.639 E9.5891
G1 X57.552 Y76.643 E9.5917
G1 X56.936 Y76.683 E9.6225
G1 X56.784 Y76.69 E9.63009
G1 X56.147 Y76.701 E9.66187
G1 X56.08 Y76.701 E9.66521
G1 X55.527 Y76.699 E9.6928
G1 X24.065 Y76.701 E11.26245
G1 X24.02 Y76.701 E11.26469
G1 X23.242 Y76.69 E11.30351
G1 X22.738 Y76.643 E11.32877
G1 X22.249 Y76.517 E11.35396
G1 X21.785 Y76.316 E11.37919
G1 X21.359 Y76.044 E11.4044
G1 X21.064 Y75.792 E11.42376
G1 X20.948 Y75.68 E11.4318
G1 X20.613 Y75.301 E11.45704
G1 X20.342 Y74.874 E11.48227
G1 X20.142 Y74.41 E11.50748
G1 X20.017 Y73.92 E11.53271
G1 X19.971 Y73.431 E11.55721
G1 X19.961 Y72.831 E11.58715
G1 X19.961 Y72.778 E11.5898
G1 X19.962 Y27.304 E13.8585
G1 X19.962 Y27.257 E13.86085
G1 X19.972 Y26.575 E13.89488
G1 X20.02 Y26.072 E13.92009
G1 X20.146 Y25.582 E13.94533
G1 X20.347 Y25.118 E13.97055
G1 X20.619 Y24.692 E13.99577
G1 X20.909 Y24.359 E14.0178
G1 X21.021 Y24.247 E14.0257
G0 F3600 X23.362 Y26.7
;TYPE:SUPPORT
G1 F1800 X23.374 Y26.7 E14.0263
G1 X23.373 Y73.3 E16.35118
G1 X23.361 Y73.3 E16.35178
G1 X23.362 Y26.7 E18.67667
G1 F1500 E12.17667
G0 F3600 X24.117 Y25.839
G0 X55.884 Y25.839
G0 X56.627 Y26.7
G1 F1500 E18.67667
G1 F1800 X57.138 Y26.7 E18.70216
G1 X57.138 Y28.82 E18.80793
G1 X57.537 Y29.219 E18.83608
G1 X58.292 Y29.219 E18.87375
G1 X58.292 Y31.982 E19.01159
G1 X58.141 Y32.352 E19.03153
G1 X58.141 Y37.486 E19.28767
G1 X57.96 Y37.842 E19.30759
G1 X57.96 Y43.456 E19.58768
G1 X57.399 Y43.456 E19.61566
G1 X57 Y43.855 E19.64382
G1 X57 Y45.524 E19.72708
G1 X56.834 Y45.887 E19.747
G1 X56.834 Y57.76 E20.33934
G1 X56.638 Y58.108 E20.35927
G1 X56.638 Y73.3 E21.1172
G1 X56.626 Y73.3 E21.1178
G1 X56.627 Y26.7 E23.44268
G0 F3600 X56.787 Y28
G1 F1800 X56.978 Y28 E23.45221
G0 F3600 X56.787 Y32
G1 F1800 X58.111 Y32 E23.51827
G0 F3600 X57.981 Y36
G1 F1800 X56.787 Y36 E23.57784
G0 F3600 X56.787 Y40
G1 F1800 X57.8 Y40 E23.62837
G0 F3600 X73.362 Y26.7
G1 F1800 X73.374 Y26.7 E23.62897
G1 X73.373 Y73.3 E25.95386
G1 X73.361 Y73.3 E25.95445
G1 X73.362 Y26.7 E28.27934
G1 F1500 E21.77934
G0 F3600 X74.117 Y25.839
G0 X105.884 Y25.839
G0 X106.627 Y26.7
G1 F1500 E28.27934
G1 F1800 X106.639 Y26.7 E28.27994
G1 X106.638 Y73.3 E30.60482
G1 X106.626 Y73.3 E30.60542
G1 X106.627 Y26.7 E32.9303
G1 F1500 E26.4303
;MESH:22_Blocco_Escursione_Braccio.stl(1)
G0 F3600 X105.884 Y25.839
G0 X74.117 Y25.839
G0 X56.392 Y27.114
G0 X55.113 Y27.114
G0 X44.156 Y33.876
G0 X44.058 Y33.89
;TYPE:WALL-INNER
G1 F1500 E32.9303
G1 F1800 X43.892 Y33.205 E32.96547
G1 X43.614 Y32.557 E33.00064
G1 X43.226 Y31.967 E33.03587
G1 X42.745 Y31.453 E33.071
G1 X42.183 Y31.027 E33.10618
G1 X41.554 Y30.704 E33.14146
G1 X40.882 Y30.495 E33.17657
G1 X40.183 Y30.402 E33.21175
G1 X39.478 Y30.431 E33.24695
G1 X38.79 Y30.58 E33.28207
G1 X38.135 Y30.845 E33.31732
G1 X37.535 Y31.22 E33.35262
G1 X37.012 Y31.69 E33.3877
G1 X36.574 Y32.244 E33.42293
G1 X36.239 Y32.865 E33.45814
G1 X36.015 Y33.532 E33.49324
G1 X35.907 Y34.228 E33.52838
G1 X35.92 Y34.934 E33.56361
G1 X36.055 Y35.626 E33.59878
G1 X36.306 Y36.287 E33.63406
G1 X36.668 Y36.893 E33.66927
G1 X37.126 Y37.427 E33.70437
G1 X37.671 Y37.877 E33.73963
G1 X38.284 Y38.225 E33.7748
G1 X38.946 Y38.464 E33.80991
G1 X39.628 Y38.583 E33.84445
G1 X40.016 Y38.601 E33.86383
G1 X40.697 Y38.544 E33.89793
G1 X41.378 Y38.364 E33.93307
G1 X42.021 Y38.071 E33.96832
G1 X42.602 Y37.671 E34.00351
G1 X43.106 Y37.179 E34.03865
G1 X43.52 Y36.606 E34.07392
G1 X43.828 Y35.972 E34.10908
G1 X44.024 Y35.296 E34.1442
G1 X44.1 Y34.595 E34.17938
G1 X44.058 Y33.89 E34.21461
G0 F3600 X44.156 Y33.876
G0 X42.86 Y65.413
G0 X43.073 Y66.813
G0 X43.746 Y68.062
G0 X45.413 Y69.391
G0 X45.45 Y69.299
G1 F1800 X46.124 Y69.507 E34.2498
G1 X46.823 Y69.599 E34.28498
G1 X47.529 Y69.568 E34.32023
G1 X48.217 Y69.417 E34.35537
G1 X48.87 Y69.151 E34.39055
G1 X49.469 Y68.777 E34.42578
G1 X49.992 Y68.306 E34.4609
G1 X50.43 Y67.752 E34.49613
G1 X50.765 Y67.13 E34.53138
G1 X50.987 Y66.462 E34.5665
G1 X51.094 Y65.765 E34.60168
G1 X51.079 Y65.059 E34.63691
G1 X50.943 Y64.368 E34.67204
G1 X50.691 Y63.709 E34.70724
G1 X50.329 Y63.103 E34.74246
G1 X49.869 Y62.569 E34.77762
G1 X49.325 Y62.12 E34.81281
G1 X48.712 Y61.772 E34.84798
G1 X48.047 Y61.534 E34.88322
G1 X47.364 Y61.415 E34.91781
G1 X46.958 Y61.4 E34.93808
G1 X46.296 Y61.459 E34.97123
G1 X45.616 Y61.638 E35.00631
G1 X44.975 Y61.932 E35.0415
G1 X44.393 Y62.332 E35.07673
G1 X43.889 Y62.825 E35.1119
G1 X43.477 Y63.398 E35.14711
G1 X43.17 Y64.032 E35.18226
G1 X42.974 Y64.709 E35.21742
G1 X42.899 Y65.413 E35.25274
G1 X42.945 Y66.115 E35.28784
G1 X43.11 Y66.801 E35.32304
G1 X43.39 Y67.447 E35.35817
G1 X43.777 Y68.038 E35.39341
G1 X44.26 Y68.552 E35.4286
G1 X44.822 Y68.976 E35.46372
G1 X45.45 Y69.299 E35.49896
G0 F3600 X45.413 Y69.391
G0 X32.822 Y69.638
G0 X31.413 Y69.391
G0 X31.45 Y69.299
G1 F1800 X32.124 Y69.507 E35.53415
G1 X32.823 Y69.599 E35.56932
G1 X33.529 Y69.568 E35.60458
G1 X34.218 Y69.417 E35.63977
G1 X34.87 Y69.151 E35.6749
G1 X35.469 Y68.777 E35.71013
G1 X35.992 Y68.306 E35.74524
G1 X36.43 Y67.752 E35.78048
G1 X36.765 Y67.13 E35.81572
G1 X36.987 Y66.462 E35.85084
G1 X37.094 Y65.765 E35.88602
G1 X37.079 Y65.059 E35.92125
G1 X36.943 Y64.368 E35.95639
G1 X36.691 Y63.709 E35.99159
G1 X36.329 Y63.103 E36.02681
G1 X35.869 Y62.569 E36.06197
G1 X35.325 Y62.12 E36.09716
G1 X34.712 Y61.772 E36.13233
G1 X34.047 Y61.534 E36.16756
G1 X33.364 Y61.415 E36.20215
G1 X32.958 Y61.4 E36.22242
G1 X32.296 Y61.459 E36.25558
G1 X31.616 Y61.638 E36.29066
G1 X30.975 Y61.932 E36.32584
G1 X30.393 Y62.332 E36.36108
G1 X29.889 Y62.825 E36.39625
G1 X29.477 Y63.398 E36.43146
G1 X29.17 Y64.032 E36.4666
G1 X28.974 Y64.709 E36.50177
G1 X28.899 Y65.413 E36.53709
G1 X28.945 Y66.115 E36.57219
G1 X29.11 Y66.801 E36.60739
G1 X29.39 Y67.447 E36.64251
G1 X29.777 Y68.038 E36.67776
G1 X30.26 Y68.552 E36.71295
G1 X30.822 Y68.976 E36.74807
G1 X31.45 Y69.299 E36.7833
G0 F3600 X31.413 Y69.391
G0 X25.073 Y72.8
G0 X25.073 Y72.9
G1 F1800 X24.873 Y72.9 E36.79328
G1 X24.873 Y72.7 E36.79974
G1 X24.874 Y27.1 E39.07473
G1 X54.927 Y27.1 E40.57408
G1 X55.127 Y27.1 E40.58406
G1 X55.127 Y27.3 E40.59052
G1 X55.126 Y72.9 E42.86552
G1 X25.073 Y72.9 E44.36487
G0 F3600 X24.673 Y73.3
;TYPE:WALL-OUTER
G1 F1800 X24.473 Y73.3 E44.37484
G1 X24.473 Y73.1 E44.3813
G1 X24.474 Y26.7 E46.69621
G1 X55.327 Y26.7 E48.23547
G1 X55.527 Y26.7 E48.24545
G1 X55.527 Y26.9 E48.25191
G1 X55.526 Y73.3 E50.56682
G1 X24.673 Y73.3 E52.10608
G0 F3600 X24.473 Y73.3
G0 X24.943 Y72.83
G0 X34.888 Y69.186
G0 X36.021 Y68.333
G0 X36.801 Y67.145
G0 X37.133 Y65.767
G0 X36.759 Y63.629
G0 X36.33 Y63.884
G1 F1800 X36.003 Y63.338 E52.13783
G1 X35.588 Y62.856 E52.16956
G1 X35.097 Y62.451 E52.20132
G1 X34.544 Y62.137 E52.23304
G1 X33.945 Y61.922 E52.26479
G1 X33.322 Y61.814 E52.29634
G1 X32.968 Y61.801 E52.31401
G1 X32.365 Y61.854 E52.34421
G1 X31.751 Y62.016 E52.37589
G1 X31.173 Y62.281 E52.40762
G1 X30.648 Y62.642 E52.4394
G1 X30.194 Y63.087 E52.47112
G1 X29.822 Y63.604 E52.5029
G1 X29.545 Y64.176 E52.5346
G1 X29.368 Y64.787 E52.56634
G1 X29.3 Y65.421 E52.59815
G1 X29.342 Y66.055 E52.62985
G1 X29.491 Y66.674 E52.66161
G1 X29.743 Y67.257 E52.6933
G1 X30.092 Y67.789 E52.72504
G1 X30.528 Y68.253 E52.75681
G1 X31.035 Y68.636 E52.78851
G1 X31.602 Y68.927 E52.82031
G1 X32.21 Y69.115 E52.85206
G1 X32.84 Y69.198 E52.88376
G1 X33.477 Y69.17 E52.91557
G1 X34.099 Y69.034 E52.94733
G1 X34.687 Y68.794 E52.97902
G1 X35.227 Y68.456 E53.0108
G1 X35.699 Y68.031 E53.04249
G1 X36.094 Y67.531 E53.07428
G1 X36.396 Y66.971 E53.10602
G1 X36.597 Y66.368 E53.13773
G1 X36.693 Y65.739 E53.16948
G1 X36.68 Y65.102 E53.20126
G1 X36.557 Y64.479 E53.23295
G1 X36.33 Y63.884 E53.26472
G0 F3600 X36.228 Y63.713
G0 X36.656 Y63.457
G0 X46.29 Y61.42
G0 X47.368 Y61.376
G0 X48.728 Y61.736
G0 X49.841 Y62.495
G0 X50.759 Y63.629
G0 X50.33 Y63.884
G1 F1800 X50.003 Y63.338 E53.29647
G1 X49.588 Y62.856 E53.3282
G1 X49.097 Y62.451 E53.35996
G1 X48.544 Y62.137 E53.39168
G1 X47.945 Y61.922 E53.42343
G1 X47.322 Y61.814 E53.45498
G1 X46.968 Y61.801 E53.47265
G1 X46.365 Y61.854 E53.50285
G1 X45.751 Y62.016 E53.53453
G1 X45.173 Y62.281 E53.56625
G1 X44.648 Y62.642 E53.59804
G1 X44.194 Y63.087 E53.62976
G1 X43.822 Y63.604 E53.66153
G1 X43.545 Y64.176 E53.69324
G1 X43.368 Y64.787 E53.72498
G1 X43.3 Y65.421 E53.75679
G1 X43.342 Y66.055 E53.78849
G1 X43.491 Y66.674 E53.82025
G1 X43.743 Y67.257 E53.85194
G1 X44.092 Y67.789 E53.88368
G1 X44.528 Y68.253 E53.91545
G1 X45.035 Y68.636 E53.94715
G1 X45.602 Y68.927 E53.97894
G1 X46.21 Y69.115 E54.0107
G1 X46.84 Y69.198 E54.0424
G1 X47.477 Y69.17 E54.07421
G1 X48.098 Y69.034 E54.10592
G1 X48.687 Y68.794 E54.13766
G1 X49.227 Y68.456 E54.16944
G1 X49.699 Y68.031 E54.20113
G1 X50.094 Y67.531 E54.23292
G1 X50.396 Y66.971 E54.26466
G1 X50.597 Y66.368 E54.29637
G1 X50.693 Y65.739 E54.32811
G1 X50.68 Y65.102 E54.3599
G1 X50.557 Y64.479 E54.39158
G1 X50.33 Y63.884 E54.42335
G0 F3600 X50.228 Y63.713
G0 X50.656 Y63.457
G0 X44.147 Y33.833
G0 X43.661 Y33.95
G1 F1800 X43.511 Y33.332 E54.45508
G1 X43.26 Y32.747 E54.48684
G1 X42.911 Y32.215 E54.51858
G1 X42.476 Y31.751 E54.55031
G1 X41.969 Y31.367 E54.58204
G1 X41.402 Y31.076 E54.61384
G1 X40.795 Y30.887 E54.64556
G1 X40.165 Y30.803 E54.67727
G1 X39.529 Y30.829 E54.70902
G1 X38.908 Y30.964 E54.74073
G1 X38.317 Y31.203 E54.77253
G1 X37.777 Y31.541 E54.80432
G1 X37.305 Y31.965 E54.83597
G1 X36.909 Y32.465 E54.86779
G1 X36.607 Y33.025 E54.89953
G1 X36.405 Y33.627 E54.93121
G1 X36.308 Y34.255 E54.96292
G1 X36.319 Y34.892 E54.9947
G1 X36.441 Y35.516 E55.02642
G1 X36.667 Y36.112 E55.05822
G1 X36.994 Y36.658 E55.08997
G1 X37.407 Y37.14 E55.12164
G1 X37.899 Y37.546 E55.15347
G1 X38.452 Y37.86 E55.18519
G1 X39.049 Y38.076 E55.21687
G1 X39.672 Y38.185 E55.24842
G1 X40.008 Y38.2 E55.2652
G1 X40.629 Y38.148 E55.29629
G1 X41.243 Y37.986 E55.32797
G1 X41.823 Y37.722 E55.35976
G1 X42.347 Y37.361 E55.39151
G1 X42.802 Y36.917 E55.42323
G1 X43.175 Y36.4 E55.45503
G1 X43.453 Y35.828 E55.48676
G1 X43.63 Y35.218 E55.51845
G1 X43.699 Y34.585 E55.55022
G1 X43.661 Y33.95 E55.58195
G0 F3600 X43.614 Y33.756
G0 X44.446 Y33.832
;TYPE:SKIN
G1 F1800 X44.263 Y33.082 E55.62047
G1 X43.959 Y32.372 E55.659
G1 X43.534 Y31.725 E55.69762
G1 X43.007 Y31.162 E55.7361
G1 X42.392 Y30.696 E55.77459
G1 X41.702 Y30.341 E55.8133
G1 X40.966 Y30.113 E55.85175
G1 X40.201 Y30.01 E55.89026
G1 X39.429 Y30.043 E55.92881
G1 X38.675 Y30.206 E55.96729
G1 X37.957 Y30.496 E56.00592
G1 X37.299 Y30.908 E56.04466
G1 X36.727 Y31.422 E56.08302
G1 X36.247 Y32.029 E56.12163
G1 X35.88 Y32.709 E56.16018
G1 X35.635 Y33.439 E56.1986
G1 X35.517 Y34.201 E56.23707
G1 X35.53 Y34.975 E56.27569
G1 X35.679 Y35.733 E56.31423
G1 X35.953 Y36.457 E56.35285
G1 X36.35 Y37.121 E56.39145
G1 X36.851 Y37.706 E56.42987
G1 X37.449 Y38.199 E56.46854
G1 X38.12 Y38.58 E56.50703
G1 X38.845 Y38.842 E56.54549
G1 X39.585 Y38.971 E56.58297
G1 X40.024 Y38.991 E56.60489
G1 X40.763 Y38.93 E56.64189
G1 X41.51 Y38.733 E56.68043
G1 X42.214 Y38.412 E56.71903
G1 X42.85 Y37.973 E56.75759
G1 X43.402 Y37.435 E56.79604
G1 X43.856 Y36.807 E56.8347
G1 X44.193 Y36.113 E56.87319
G1 X44.408 Y35.372 E56.91169
G1 X44.492 Y34.605 E56.95018
G1 X44.446 Y33.832 E56.98881
G0 F3600 X54.737 Y27.49
G1 F1800 X54.736 Y72.51 E59.23487
G1 X25.263 Y72.51 E60.70529
G1 X25.264 Y27.49 E62.95134
G1 X54.737 Y27.49 E64.42176
G0 F3600 X46.228 Y61.073
G1 F1800 X45.484 Y61.269 E64.46014
G1 X44.782 Y61.591 E64.49867
G1 X44.144 Y62.03 E64.53731
G1 X43.592 Y62.57 E64.57584
G1 X43.141 Y63.197 E64.61437
G1 X42.805 Y63.892 E64.65288
G1 X42.59 Y64.633 E64.69137
G1 X42.507 Y65.405 E64.73011
G1 X42.558 Y66.174 E64.76856
G1 X42.739 Y66.925 E64.8071
G1 X43.045 Y67.632 E64.84554
G1 X43.469 Y68.28 E64.88417
G1 X43.999 Y68.843 E64.92275
G1 X44.614 Y69.307 E64.96118
G1 X45.302 Y69.662 E64.99981
G1 X46.04 Y69.889 E65.03833
G1 X46.806 Y69.991 E65.07688
G1 X47.58 Y69.956 E65.11554
G1 X48.334 Y69.791 E65.15404
G1 X49.048 Y69.5 E65.19251
G1 X49.705 Y69.089 E65.23117
G1 X50.277 Y68.573 E65.26961
G1 X50.757 Y67.967 E65.30817
G1 X51.124 Y67.286 E65.34677
G1 X51.367 Y66.554 E65.38525
G1 X51.484 Y65.791 E65.42376
G1 X51.469 Y65.017 E65.46238
G1 X51.319 Y64.26 E65.50088
G1 X51.044 Y63.538 E65.53943
G1 X50.647 Y62.874 E65.57803
G1 X50.142 Y62.29 E65.61654
G1 X49.547 Y61.798 E65.65506
G1 X48.876 Y61.417 E65.69356
G1 X48.147 Y61.156 E65.73219
G1 X47.405 Y61.027 E65.76976
G1 X46.948 Y61.01 E65.79258
G1 X46.228 Y61.073 E65.82864
G0 F3600 X34.147 Y61.156
G1 F1800 X33.405 Y61.027 E65.86621
G1 X32.948 Y61.01 E65.88903
G1 X32.228 Y61.073 E65.92508
G1 X31.484 Y61.269 E65.96347
G1 X30.782 Y61.591 E66.002
G1 X30.144 Y62.03 E66.04064
G1 X29.592 Y62.57 E66.07916
G1 X29.141 Y63.197 E66.1177
G1 X28.805 Y63.892 E66.15621
G1 X28.59 Y64.633 E66.1947
G1 X28.507 Y65.405 E66.23344
G1 X28.558 Y66.174 E66.27189
G1 X28.739 Y66.925 E66.31043
G1 X29.045 Y67.632 E66.34886
G1 X29.469 Y68.28 E66.3875
G1 X29.999 Y68.843 E66.42608
G1 X30.614 Y69.307 E66.46451
G1 X31.302 Y69.662 E66.50314
G1 X32.04 Y69.889 E66.54166
G1 X32.806 Y69.991 E66.58021
G1 X33.58 Y69.956 E66.61886
G1 X34.335 Y69.791 E66.65742
G1 X35.048 Y69.5 E66.69584
G1 X35.705 Y69.089 E66.7345
G1 X36.277 Y68.573 E66.77294
G1 X36.757 Y67.967 E66.81151
G1 X37.124 Y67.286 E66.8501
G1 X37.367 Y66.554 E66.88858
G1 X37.484 Y65.791 E66.92709
G1 X37.469 Y65.017 E66.96571
G1 X37.319 Y64.26 E67.00421
G1 X37.044 Y63.538 E67.04276
G1 X36.647 Y62.874 E67.08136
G1 X36.142 Y62.29 E67.11987
G1 X35.547 Y61.798 E67.15839
G1 X34.876 Y61.417 E67.19689
G1 X34.147 Y61.156 E67.23552
G0 F3600 X32.29 Y61.42
G0 X30.956 Y61.898
G0 X29.859 Y62.799
G0 X29.268 Y63.74
G0 X25.943 Y72.329
G1 F1800 X25.442 Y71.828 E67.27087
G0 F3600 X25.442 Y71.262
G1 F1800 X26.508 Y72.329 E67.34612
G0 F3600 X27.074 Y72.329
