;FLAVOR:Marlin
;TIME:5841
;Filament used: 9.08636m
;Layer height: 0.2
;MINX:73.299
;MINY:48.164
;MINZ:0.3
;MAXX:126.701
;MAXY:127.642
;MAXZ:28.5
;Generated with Cura_SteamEngine 4.3.0
M140 S60
M105
M190 S60
M104 S200
M105
M109 S200
M82 ;absolute extrusion mode
G28 ;Home
G1 Z15.0 F6000 ;Move the platform down 15mm
;Prime the extruder
G92 E0
G1 F200 E3
G92 E0
G92 E0
G92 E0
G1 F1500 E-6.5
;LAYER_COUNT:144
;LAYER:0
M107 P1
G0 F3600 X73.958 Y49.555 Z0.3
;TYPE:SKIRT
G1 F1500 E0
G1 F1800 X74.257 Y49.212 E0.0227
G1 X74.369 Y49.101 E0.03057
G1 X74.756 Y48.775 E0.05581
G1 X75.188 Y48.513 E0.08102
G1 X75.657 Y48.323 E0.10627
G1 X76.149 Y48.209 E0.13146
G1 X76.565 Y48.175 E0.15229
G1 X77.122 Y48.165 E0.18008
G1 X77.179 Y48.164 E0.18292
G1 X122.677 Y48.165 E2.45283
G1 X122.723 Y48.165 E2.45512
G1 X123.422 Y48.175 E2.49
G1 X123.925 Y48.222 E2.5152
G1 X124.415 Y48.348 E2.54044
G1 X124.879 Y48.55 E2.56569
G1 X125.305 Y48.822 E2.59091
G1 X125.619 Y49.092 E2.61157
G1 X125.733 Y49.204 E2.61954
G1 X126.064 Y49.586 E2.64476
G1 X126.331 Y50.015 E2.66997
G1 X126.528 Y50.481 E2.69521
G1 X126.648 Y50.972 E2.72043
G1 X126.689 Y51.43 E2.74337
G1 X126.7 Y52.047 E2.77416
G1 X126.701 Y52.115 E2.77755
G1 X126.699 Y52.676 E2.80554
G1 X126.701 Y83.538 E4.34525
G1 X126.701 Y83.583 E4.34749
G1 X126.681 Y85.014 E4.41889
G1 X126.68 Y85.059 E4.42114
G1 X126.637 Y86.594 E4.49775
G1 X126.637 Y89.336 E4.63455
G1 X126.7 Y92.019 E4.76844
G1 X126.701 Y92.105 E4.77273
G1 X126.699 Y92.675 E4.80117
G1 X126.701 Y123.532 E6.34063
G1 X126.701 Y123.577 E6.34288
G1 X126.69 Y124.361 E6.38199
G1 X126.643 Y124.864 E6.4072
G1 X126.517 Y125.354 E6.43244
G1 X126.316 Y125.818 E6.45767
G1 X126.044 Y126.244 E6.48288
G1 X125.792 Y126.539 E6.50224
G1 X125.68 Y126.655 E6.51028
G1 X125.301 Y126.99 E6.53552
G1 X124.874 Y127.261 E6.56075
G1 X124.41 Y127.461 E6.58596
G1 X123.92 Y127.586 E6.61119
G1 X123.435 Y127.631 E6.63549
G1 X122.878 Y127.641 E6.66328
G1 X122.821 Y127.642 E6.66613
G1 X77.323 Y127.641 E8.93603
G1 X77.277 Y127.641 E8.93833
G1 X76.578 Y127.631 E8.9732
G1 X76.075 Y127.584 E8.99841
G1 X75.585 Y127.458 E9.02365
G1 X75.121 Y127.256 E9.0489
G1 X74.695 Y126.984 E9.07411
G1 X74.381 Y126.714 E9.09477
G1 X74.267 Y126.602 E9.10275
G1 X73.936 Y126.22 E9.12796
G1 X73.669 Y125.791 E9.15317
G1 X73.472 Y125.325 E9.17841
G1 X73.352 Y124.834 E9.20363
G1 X73.31 Y124.37 E9.22687
G1 X73.299 Y123.68 E9.2613
G1 X73.299 Y123.625 E9.26405
G1 X73.3 Y122.912 E9.29962
G1 X73.299 Y92.268 E10.82845
G1 X73.299 Y92.223 E10.8307
G1 X73.319 Y90.792 E10.9021
G1 X73.32 Y90.747 E10.90435
G1 X73.363 Y89.212 E10.98096
G1 X73.363 Y86.47 E11.11776
G1 X73.3 Y83.77 E11.2525
G1 X73.299 Y83.691 E11.25644
G1 X73.3 Y82.927 E11.29455
G1 X73.299 Y52.224 E12.82633
G1 X73.299 Y52.176 E12.82873
G1 X73.31 Y51.437 E12.8656
G1 X73.358 Y50.934 E12.89081
G1 X73.484 Y50.444 E12.91605
G1 X73.686 Y49.981 E12.94125
G1 X73.958 Y49.555 E12.96647
G0 F3600 X76.7 Y51.564
;TYPE:SUPPORT
G1 F1800 X123.3 Y51.565 E15.29135
G1 X123.3 Y51.577 E15.29195
G1 X76.7 Y51.576 E17.61683
G1 X76.7 Y51.564 E17.61743
G1 F1500 E11.11743
G0 F3600 X75.839 Y52.319
G0 X75.839 Y83.486
G0 X76.7 Y84.229
G1 F1500 E17.61743
G1 F1800 X123.3 Y84.23 E19.94232
G1 X123.3 Y84.242 E19.94291
G1 X76.7 Y84.241 E22.2678
G1 X76.7 Y84.229 E22.2684
G0 F3600 X76.7 Y91.564
G1 F1800 X123.3 Y91.565 E24.59328
G1 X123.3 Y91.577 E24.59388
G1 X76.7 Y91.576 E26.91876
G1 X76.7 Y91.564 E26.91936
G1 F1500 E20.41936
G0 F3600 X75.839 Y92.319
G0 X75.839 Y123.486
G0 X76.7 Y124.229
G1 F1500 E26.91936
G1 F1800 X123.3 Y124.23 E29.24424
G1 X123.3 Y124.242 E29.24484
G1 X76.7 Y124.241 E31.56973
G1 X76.7 Y124.229 E31.57033
G1 F1500 E25.07033
;MESH:22_Blocco_Escursione_Braccio.stl
G0 F3600 X75.839 Y123.486
G0 X75.839 Y92.319
G0 X77.114 Y83.995
G0 X77.114 Y82.715
G0 X80.611 Y66.312
G0 X80.703 Y66.349
;TYPE:WALL-INNER
G1 F1500 E31.57033
G1 F1800 X80.495 Y67.023 E31.60552
G1 X80.402 Y67.722 E31.6407
G1 X80.431 Y68.426 E31.67585
G1 X80.58 Y69.115 E31.71102
G1 X80.845 Y69.769 E31.74622
G1 X81.22 Y70.367 E31.78144
G1 X81.691 Y70.893 E31.81666
G1 X82.244 Y71.329 E31.8518
G1 X82.865 Y71.665 E31.88702
G1 X83.534 Y71.889 E31.92222
G1 X84.23 Y71.996 E31.95735
G1 X84.935 Y71.983 E31.99253
G1 X85.628 Y71.848 E32.02775
G1 X86.286 Y71.596 E32.06291
G1 X86.892 Y71.236 E32.09807
G1 X87.428 Y70.776 E32.13331
G1 X87.877 Y70.233 E32.16846
G1 X88.225 Y69.619 E32.20367
G1 X88.464 Y68.956 E32.23884
G1 X88.583 Y68.274 E32.27337
G1 X88.601 Y67.888 E32.29265
G1 X88.544 Y67.206 E32.3268
G1 X88.364 Y66.524 E32.36199
G1 X88.071 Y65.882 E32.39719
G1 X87.671 Y65.301 E32.43239
G1 X87.179 Y64.796 E32.46756
G1 X86.606 Y64.383 E32.5028
G1 X85.972 Y64.075 E32.53797
G1 X85.295 Y63.88 E32.57311
G1 X84.594 Y63.803 E32.6083
G1 X83.889 Y63.846 E32.64354
G1 X83.204 Y64.011 E32.67869
G1 X82.557 Y64.289 E32.71382
G1 X81.967 Y64.676 E32.74902
G1 X81.451 Y65.159 E32.78428
G1 X81.027 Y65.721 E32.81941
G1 X80.703 Y66.349 E32.85466
G0 F3600 X80.611 Y66.312
G0 X81.422 Y65.133
G0 X82.539 Y64.254
G0 X83.884 Y63.807
G0 X85.302 Y63.841
G0 X116.471 Y70.878
G0 X117.805 Y71.39
G0 X117.751 Y71.473
G1 F1800 X117.13 Y71.14 E32.88982
G1 X116.462 Y70.916 E32.92497
G1 X115.765 Y70.809 E32.96015
G1 X115.059 Y70.824 E32.99538
G1 X114.368 Y70.96 E33.03051
G1 X113.709 Y71.212 E33.06571
G1 X113.103 Y71.574 E33.10093
G1 X112.569 Y72.034 E33.13609
G1 X112.12 Y72.578 E33.17128
G1 X111.772 Y73.191 E33.20645
G1 X111.534 Y73.856 E33.24169
G1 X111.415 Y74.538 E33.27623
G1 X111.399 Y74.925 E33.29555
G1 X111.458 Y75.606 E33.32966
G1 X111.638 Y76.287 E33.3648
G1 X111.932 Y76.928 E33.39998
G1 X112.332 Y77.51 E33.43521
G1 X112.825 Y78.014 E33.47039
G1 X113.398 Y78.426 E33.5056
G1 X114.032 Y78.734 E33.54076
G1 X114.71 Y78.929 E33.57596
G1 X115.413 Y79.004 E33.61123
G1 X116.115 Y78.958 E33.64633
G1 X116.801 Y78.793 E33.68153
G1 X117.447 Y78.513 E33.71666
G1 X118.038 Y78.126 E33.7519
G1 X118.552 Y77.643 E33.78709
G1 X118.976 Y77.081 E33.82221
G1 X119.299 Y76.453 E33.85744
G1 X119.507 Y75.779 E33.89263
G1 X119.599 Y75.08 E33.92781
G1 X119.568 Y74.375 E33.96302
G1 X119.417 Y73.686 E33.99821
G1 X119.151 Y73.033 E34.03338
G1 X118.777 Y72.434 E34.06861
G1 X118.306 Y71.911 E34.10373
G1 X117.751 Y71.473 E34.139
G0 F3600 X117.805 Y71.39
G0 X118.808 Y72.41
G0 X122.8 Y82.53
G0 X122.9 Y82.53
G1 F1800 X122.9 Y82.73 E34.14898
G1 X122.7 Y82.73 E34.15544
G1 X77.1 Y82.729 E36.43043
G1 X77.1 Y53.276 E37.89985
G1 X77.1 Y53.076 E37.90983
G1 X77.3 Y53.076 E37.91629
G1 X122.9 Y53.077 E40.19128
G1 X122.9 Y82.53 E41.6607
G0 F3600 X122.8 Y82.53
G0 X119.607 Y60.37
G0 X119.186 Y59.015
G0 X117.805 Y57.39
G0 X117.751 Y57.473
G1 F1800 X117.13 Y57.14 E41.69585
G1 X116.462 Y56.916 E41.731
G1 X115.765 Y56.809 E41.76618
G1 X115.059 Y56.824 E41.80141
G1 X114.368 Y56.96 E41.83655
G1 X113.709 Y57.212 E41.87175
G1 X113.103 Y57.574 E41.90697
G1 X112.569 Y58.034 E41.94213
G1 X112.12 Y58.578 E41.97732
G1 X111.772 Y59.191 E42.01249
G1 X111.534 Y59.856 E42.04772
G1 X111.415 Y60.538 E42.08226
G1 X111.399 Y60.925 E42.10159
G1 X111.458 Y61.606 E42.13569
G1 X111.638 Y62.287 E42.17083
G1 X111.932 Y62.928 E42.20602
G1 X112.332 Y63.51 E42.24125
G1 X112.825 Y64.014 E42.27642
G1 X113.398 Y64.426 E42.31163
G1 X114.032 Y64.734 E42.3468
G1 X114.71 Y64.929 E42.38199
G1 X115.413 Y65.004 E42.41727
G1 X116.115 Y64.958 E42.45236
G1 X116.801 Y64.793 E42.48756
G1 X117.447 Y64.513 E42.52269
G1 X118.038 Y64.126 E42.55794
G1 X118.552 Y63.643 E42.59312
G1 X118.976 Y63.081 E42.62825
G1 X119.299 Y62.453 E42.66348
G1 X119.507 Y61.779 E42.69867
G1 X119.599 Y61.08 E42.73384
G1 X119.568 Y60.375 E42.76905
G1 X119.417 Y59.686 E42.80424
G1 X119.151 Y59.033 E42.83942
G1 X118.777 Y58.434 E42.87465
G1 X118.306 Y57.911 E42.90976
G1 X117.751 Y57.473 E42.94504
G0 F3600 X117.531 Y57.809
;TYPE:WALL-OUTER
G1 F1800 X116.971 Y57.508 E42.97675
G1 X116.368 Y57.306 E43.00848
G1 X115.739 Y57.21 E43.04023
G1 X115.102 Y57.223 E43.07201
G1 X114.479 Y57.346 E43.10369
G1 X113.884 Y57.573 E43.13547
G1 X113.338 Y57.9 E43.16722
G1 X112.856 Y58.315 E43.19895
G1 X112.451 Y58.806 E43.2307
G1 X112.137 Y59.359 E43.26243
G1 X111.922 Y59.958 E43.29418
G1 X111.814 Y60.581 E43.32573
G1 X111.8 Y60.916 E43.34245
G1 X111.854 Y61.537 E43.37355
G1 X112.016 Y62.152 E43.40528
G1 X112.281 Y62.73 E43.43701
G1 X112.642 Y63.255 E43.46879
G1 X113.087 Y63.709 E43.50051
G1 X113.604 Y64.081 E43.53228
G1 X114.176 Y64.359 E43.56401
G1 X114.787 Y64.535 E43.59574
G1 X115.421 Y64.603 E43.62755
G1 X116.055 Y64.561 E43.65925
G1 X116.674 Y64.412 E43.69101
G1 X117.257 Y64.16 E43.7227
G1 X117.789 Y63.811 E43.75444
G1 X118.253 Y63.375 E43.78621
G1 X118.636 Y62.868 E43.81791
G1 X118.927 Y62.301 E43.8497
G1 X119.115 Y61.693 E43.88145
G1 X119.198 Y61.063 E43.91316
G1 X119.17 Y60.427 E43.94492
G1 X119.034 Y59.805 E43.97668
G1 X118.794 Y59.216 E44.00841
G1 X118.456 Y58.676 E44.0402
G1 X118.031 Y58.204 E44.07188
G1 X117.531 Y57.809 E44.10367
G0 F3600 X117.355 Y57.715
G0 X117.592 Y57.275
G0 X118.333 Y57.882
G0 X119.186 Y59.015
G0 X119.607 Y60.37
G0 X117.841 Y71.418
G0 X117.531 Y71.809
G1 F1800 X116.971 Y71.508 E44.13539
G1 X116.368 Y71.306 E44.16712
G1 X115.739 Y71.21 E44.19886
G1 X115.102 Y71.223 E44.23065
G1 X114.479 Y71.346 E44.26233
G1 X113.884 Y71.573 E44.2941
G1 X113.338 Y71.9 E44.32585
G1 X112.856 Y72.315 E44.35759
G1 X112.451 Y72.806 E44.38934
G1 X112.137 Y73.359 E44.42107
G1 X111.922 Y73.958 E44.45282
G1 X111.814 Y74.581 E44.48436
G1 X111.8 Y74.916 E44.50109
G1 X111.854 Y75.537 E44.53219
G1 X112.016 Y76.152 E44.56392
G1 X112.281 Y76.73 E44.59564
G1 X112.642 Y77.255 E44.62743
G1 X113.087 Y77.709 E44.65915
G1 X113.604 Y78.081 E44.69092
G1 X114.176 Y78.359 E44.72265
G1 X114.787 Y78.535 E44.75437
G1 X115.421 Y78.603 E44.78619
G1 X116.055 Y78.561 E44.81788
G1 X116.674 Y78.412 E44.84965
G1 X117.257 Y78.16 E44.88134
G1 X117.789 Y77.811 E44.91308
G1 X118.253 Y77.375 E44.94484
G1 X118.636 Y76.868 E44.97654
G1 X118.927 Y76.301 E45.00834
G1 X119.115 Y75.693 E45.04009
G1 X119.198 Y75.063 E45.07179
G1 X119.17 Y74.427 E45.10355
G1 X119.034 Y73.805 E45.13532
G1 X118.794 Y73.216 E45.16705
G1 X118.456 Y72.676 E45.19883
G1 X118.031 Y72.204 E45.23052
G1 X117.531 Y71.809 E45.26231
G0 F3600 X117.355 Y71.715
G0 X117.592 Y71.275
G0 X118.333 Y71.882
G0 X119.148 Y72.954
G0 X122.83 Y82.66
G0 X123.3 Y82.93
G1 F1800 X123.3 Y83.13 E45.27229
G1 X123.1 Y83.13 E45.27875
G1 X76.7 Y83.129 E47.59365
G1 X76.7 Y52.876 E49.10298
G1 X76.7 Y52.676 E49.11296
G1 X76.9 Y52.676 E49.11942
G1 X123.3 Y52.677 E51.43433
G1 X123.3 Y82.93 E52.94366
G0 F3600 X123.3 Y83.13
G0 X122.83 Y82.66
G0 X88.64 Y67.888
G0 X88.401 Y66.511
G0 X87.701 Y65.276
G0 X86.626 Y64.349
G0 X85.302 Y63.841
G0 X83.884 Y63.807
G0 X82.539 Y64.254
G0 X81.475 Y65.084
G0 X80.632 Y66.272
G0 X81.075 Y66.501
G1 F1800 X80.887 Y67.109 E52.97541
G1 X80.803 Y67.74 E53.00716
G1 X80.829 Y68.375 E53.03887
G1 X80.964 Y68.997 E53.07063
G1 X81.203 Y69.586 E53.10234
G1 X81.541 Y70.126 E53.13412
G1 X81.966 Y70.6 E53.16588
G1 X82.465 Y70.994 E53.1976
G1 X83.025 Y71.297 E53.22937
G1 X83.628 Y71.499 E53.2611
G1 X84.257 Y71.595 E53.29284
G1 X84.893 Y71.584 E53.32457
G1 X85.517 Y71.462 E53.3563
G1 X86.111 Y71.235 E53.38802
G1 X86.658 Y70.91 E53.41976
G1 X87.141 Y70.495 E53.45153
G1 X87.546 Y70.005 E53.48325
G1 X87.86 Y69.451 E53.51502
G1 X88.076 Y68.853 E53.54674
G1 X88.185 Y68.23 E53.57829
G1 X88.2 Y67.896 E53.59497
G1 X88.148 Y67.274 E53.62611
G1 X87.986 Y66.659 E53.65784
G1 X87.722 Y66.08 E53.68959
G1 X87.361 Y65.556 E53.72134
G1 X86.917 Y65.1 E53.75309
G1 X86.4 Y64.728 E53.78487
G1 X85.828 Y64.45 E53.81659
G1 X85.217 Y64.274 E53.84832
G1 X84.584 Y64.204 E53.88009
G1 X83.949 Y64.243 E53.91183
G1 X83.331 Y64.392 E53.94355
G1 X82.747 Y64.643 E53.97526
G1 X82.215 Y64.992 E54.007
G1 X81.75 Y65.427 E54.03877
G1 X81.367 Y65.935 E54.07051
G1 X81.075 Y66.501 E54.10228
G0 F3600 X81.016 Y66.692
G0 X80.34 Y66.201
;TYPE:SKIN
G1 F1800 X80.113 Y66.939 E54.14081
G1 X80.01 Y67.704 E54.17932
G1 X80.043 Y68.475 E54.21782
G1 X80.206 Y69.23 E54.25635
G1 X80.496 Y69.947 E54.29494
G1 X80.908 Y70.603 E54.33358
G1 X81.423 Y71.178 E54.3721
G1 X82.029 Y71.656 E54.4106
G1 X82.709 Y72.024 E54.44918
G1 X83.442 Y72.269 E54.48774
G1 X84.204 Y72.386 E54.5262
G1 X84.976 Y72.373 E54.56472
G1 X85.736 Y72.224 E54.60336
G1 X86.456 Y71.949 E54.64181
G1 X87.12 Y71.554 E54.68035
G1 X87.707 Y71.051 E54.71892
G1 X88.199 Y70.455 E54.75748
G1 X88.58 Y69.783 E54.79602
G1 X88.842 Y69.056 E54.83457
G1 X88.971 Y68.317 E54.872
G1 X88.991 Y67.881 E54.89377
G1 X88.93 Y67.14 E54.93087
G1 X88.733 Y66.392 E54.96946
G1 X88.412 Y65.689 E55.00801
G1 X87.973 Y65.053 E55.04657
G1 X87.435 Y64.5 E55.08506
G1 X86.807 Y64.047 E55.12369
G1 X86.112 Y63.71 E55.16223
G1 X85.371 Y63.496 E55.20071
G1 X84.604 Y63.411 E55.23921
G1 X83.831 Y63.458 E55.27784
G1 X83.081 Y63.64 E55.31635
G1 X82.372 Y63.944 E55.35483
G1 X81.725 Y64.368 E55.39342
G1 X81.16 Y64.897 E55.43204
G1 X80.696 Y65.512 E55.47047
G1 X80.34 Y66.201 E55.50917
G0 F3600 X77.49 Y53.466
G1 F1800 X122.51 Y53.467 E57.75522
G1 X122.51 Y82.34 E59.1957
G1 X77.49 Y82.339 E61.44176
G1 X77.49 Y53.466 E62.88224
G0 F3600 X111.072 Y61.673
G1 F1800 X111.269 Y62.419 E62.92073
G1 X111.591 Y63.121 E62.95927
G1 X112.03 Y63.759 E62.9979
G1 X112.57 Y64.311 E63.03643
G1 X113.197 Y64.762 E63.07496
G1 X113.892 Y65.099 E63.1135
G1 X114.634 Y65.313 E63.15202
G1 X115.405 Y65.396 E63.19071
G1 X116.174 Y65.345 E63.22916
G1 X116.925 Y65.164 E63.2677
G1 X117.632 Y64.858 E63.30614
G1 X118.28 Y64.434 E63.34477
G1 X118.843 Y63.904 E63.38335
G1 X119.307 Y63.289 E63.42178
G1 X119.662 Y62.601 E63.46041
G1 X119.889 Y61.863 E63.49893
G1 X119.991 Y61.097 E63.53748
G1 X119.956 Y60.324 E63.57609
G1 X119.791 Y59.569 E63.61464
G1 X119.5 Y58.855 E63.65311
G1 X119.089 Y58.198 E63.69177
G1 X118.573 Y57.626 E63.7302
G1 X117.966 Y57.145 E63.76884
G1 X117.286 Y56.781 E63.80732
G1 X116.554 Y56.536 E63.84583
G1 X115.791 Y56.419 E63.88434
G1 X115.017 Y56.434 E63.92297
G1 X114.26 Y56.584 E63.96147
G1 X113.538 Y56.859 E64.00001
G1 X112.874 Y57.256 E64.03861
G1 X112.29 Y57.761 E64.07713
G1 X111.798 Y58.356 E64.11565
G1 X111.417 Y59.027 E64.15414
G1 X111.156 Y59.756 E64.19277
G1 X111.027 Y60.497 E64.2303
G1 X111.009 Y60.934 E64.25212
G1 X111.072 Y61.673 E64.28912
G0 F3600 X111.156 Y73.756
G1 F1800 X111.027 Y74.497 E64.32665
G1 X111.009 Y74.934 E64.34847
G1 X111.072 Y75.673 E64.38547
G1 X111.269 Y76.419 E64.42396
G1 X111.591 Y77.121 E64.46249
G1 X112.03 Y77.759 E64.50113
G1 X112.57 Y78.311 E64.53966
G1 X113.197 Y78.762 E64.57819
G1 X113.892 Y79.099 E64.61673
G1 X114.634 Y79.313 E64.65525
G1 X115.405 Y79.396 E64.69394
G1 X116.174 Y79.345 E64.73239
G1 X116.925 Y79.164 E64.77093
G1 X117.632 Y78.858 E64.80937
G1 X118.28 Y78.434 E64.848
G1 X118.843 Y77.904 E64.88658
G1 X119.307 Y77.289 E64.92501
G1 X119.662 Y76.601 E64.96364
G1 X119.889 Y75.863 E65.00216
G1 X119.991 Y75.097 E65.04071
G1 X119.956 Y74.324 E65.07931
G1 X119.791 Y73.569 E65.11787
G1 X119.5 Y72.855 E65.15634
G1 X119.089 Y72.198 E65.195
G1 X118.573 Y71.626 E65.23343
G1 X117.966 Y71.145 E65.27207
G1 X117.286 Y70.781 E65.31055
G1 X116.554 Y70.536 E65.34906
G1 X115.791 Y70.419 E65.38757
G1 X115.017 Y70.434 E65.4262
G1 X114.26 Y70.584 E65.4647
G1 X113.538 Y70.859 E65.50324
G1 X112.874 Y71.256 E65.54184
G1 X112.29 Y71.761 E65.58036
G1 X111.798 Y72.356 E65.61888
G1 X111.417 Y73.027 E65.65737
G1 X111.156 Y73.756 E65.696
G0 F3600 X119.009 Y63.102
G0 X122.329 Y53.881
G1 F1800 X122.094 Y53.646 E65.71258
G0 F3600 X121.529 Y53.646
G1 F1800 X122.329 Y54.447 E65.76906
G0 F3600 X122.329 Y55.012
G1 F1800 X120.963 Y53.646 E65.86544
G0 F3600 X120.397 Y53.646
G1 F1800 X122.329 Y55.578 E66.00176
G0 F3600 X122.329 Y56.144
G1 F1800 X119.831 Y53.646 E66.178
G0 F3600 X119.266 Y53.646
G1 F1800 X122.329 Y56.709 E66.39411
G0 F3600 X122.329 Y57.275
G1 F1800 X118.7 Y53.646 E66.65016
G0 F3600 X118.134 Y53.646
G1 F1800 X122.329 Y57.841 E66.94614
G0 F3600 X122.329 Y58.407
G1 F1800 X117.569 Y53.646 E67.28202
G0 F3600 X117.003 Y53.646
G1 F1800 X122.329 Y58.972 E67.6578
G0 F3600 X122.329 Y59.538
G1 F1800 X116.437 Y53.646 E68.07351
G0 F3600 X115.872 Y53.646
G1 F1800 X122.329 Y60.104 E68.52912
G0 F3600 X122.329 Y60.669
