;FLAVOR:Marlin
;TIME:656
;Filament used: 1.07388m
;Layer height: 0.3
;MINX:40.287
;MINY:39.525
;MINZ:0.3
;MAXX:71.287
;MAXY:65.525
;MAXZ:21.9
;Generated with Cura_SteamEngine 4.3.0
M140 S60
M105
M190 S60
M104 S210
M105
M109 S210
M82 ;absolute extrusion mode
G28 ;Home
G1 Z15.0 F6000 ;Move the platform down 15mm
;Prime the extruder
G92 E0
G1 F200 E3
G92 E0
G92 E0
G92 E0
;LAYER_COUNT:73
;LAYER:0
M107 P1
G0 F3600 X41.291 Y40.894 Z0.3
;TYPE:SKIRT
G1 F1800 X41.693 Y40.497 E0.02819
G1 X42.147 Y40.16 E0.0564
G1 X42.644 Y39.891 E0.08459
G1 X43.174 Y39.694 E0.1128
G1 X43.727 Y39.575 E0.14102
G1 X44.184 Y39.536 E0.1639
G1 X44.505 Y39.527 E0.17992
G1 X44.617 Y39.525 E0.18551
G1 X66.637 Y39.525 E1.28409
G1 X67.335 Y39.535 E1.31892
G1 X67.899 Y39.583 E1.34716
G1 X68.449 Y39.71 E1.37532
G1 X68.977 Y39.914 E1.40356
G1 X69.471 Y40.189 E1.43177
G1 X69.92 Y40.532 E1.45996
G1 X70.317 Y40.934 E1.48815
G1 X70.654 Y41.389 E1.5164
G1 X70.922 Y41.886 E1.54457
G1 X71.118 Y42.416 E1.57276
G1 X71.238 Y42.969 E1.60099
G1 X71.276 Y43.423 E1.62372
G1 X71.285 Y43.743 E1.63969
G1 X71.287 Y43.855 E1.64528
G1 X71.287 Y60.839 E2.49261
G1 X71.278 Y61.566 E2.52889
G1 X71.231 Y62.129 E2.55707
G1 X71.105 Y62.68 E2.58527
G1 X70.903 Y63.208 E2.61348
G1 X70.628 Y63.702 E2.64168
G1 X70.286 Y64.152 E2.66988
G1 X69.884 Y64.55 E2.6981
G1 X69.431 Y64.887 E2.72627
G1 X68.934 Y65.157 E2.75449
G1 X68.404 Y65.354 E2.7827
G1 X67.852 Y65.475 E2.81089
G1 X67.39 Y65.514 E2.83402
G1 X67.069 Y65.523 E2.85004
G1 X66.957 Y65.525 E2.85563
G1 X44.942 Y65.525 E3.95397
G1 X44.244 Y65.516 E3.98879
G1 X43.681 Y65.468 E4.01698
G1 X43.13 Y65.342 E4.04518
G1 X42.602 Y65.14 E4.07339
G1 X42.108 Y64.865 E4.10159
G1 X41.658 Y64.523 E4.12979
G1 X41.26 Y64.121 E4.15801
G1 X40.924 Y63.667 E4.18619
G1 X40.654 Y63.17 E4.21441
G1 X40.457 Y62.64 E4.24262
G1 X40.337 Y62.088 E4.2708
G1 X40.297 Y61.624 E4.29404
G1 X40.288 Y61.291 E4.31066
G1 X40.287 Y61.183 E4.31605
G1 X40.287 Y44.145 E5.16607
G1 X40.296 Y43.48 E5.19925
G1 X40.344 Y42.917 E5.22744
G1 X40.47 Y42.366 E5.25564
G1 X40.673 Y41.838 E5.28387
G1 X40.949 Y41.344 E5.3121
G1 X41.291 Y40.894 E5.3403
G0 F3600 X41.684 Y41.056
G1 F1800 X42.081 Y40.696 E5.36703
G1 X42.528 Y40.398 E5.39384
G1 X43.013 Y40.17 E5.42057
G1 X43.527 Y40.017 E5.44733
G1 X44.195 Y39.935 E5.4809
G1 X44.516 Y39.926 E5.49693
G1 X44.617 Y39.925 E5.50196
G1 X66.632 Y39.925 E6.6003
G1 X67.33 Y39.935 E6.63512
G1 X67.864 Y39.983 E6.66187
G1 X68.385 Y40.109 E6.68862
G1 X68.882 Y40.312 E6.7154
G1 X69.343 Y40.586 E6.74215
G1 X69.758 Y40.925 E6.76889
G1 X70.118 Y41.323 E6.79566
G1 X70.415 Y41.769 E6.8224
G1 X70.643 Y42.255 E6.84918
G1 X70.795 Y42.769 E6.87592
G1 X70.877 Y43.434 E6.90935
G1 X70.886 Y43.754 E6.92532
G1 X70.887 Y43.855 E6.93036
G1 X70.887 Y60.834 E7.77744
G1 X70.878 Y61.561 E7.81372
G1 X70.831 Y62.095 E7.84046
G1 X70.706 Y62.616 E7.86719
G1 X70.504 Y63.113 E7.89396
G1 X70.231 Y63.575 E7.92073
G1 X69.893 Y63.991 E7.94747
G1 X69.496 Y64.352 E7.97424
G1 X69.05 Y64.65 E8.001
G1 X68.565 Y64.878 E8.02774
G1 X68.051 Y65.032 E8.05451
G1 X67.379 Y65.115 E8.08829
G1 X67.058 Y65.124 E8.10431
G1 X66.957 Y65.125 E8.10935
G1 X44.948 Y65.125 E9.20738
G1 X44.25 Y65.116 E9.24221
G1 X43.715 Y65.069 E9.269
G1 X43.194 Y64.943 E9.29575
G1 X42.697 Y64.741 E9.32251
G1 X42.236 Y64.468 E9.34924
G1 X41.82 Y64.129 E9.37601
G1 X41.459 Y63.733 E9.40275
G1 X41.161 Y63.287 E9.42951
G1 X40.933 Y62.801 E9.45629
G1 X40.78 Y62.287 E9.48305
G1 X40.697 Y61.613 E9.51693
G1 X40.688 Y61.28 E9.53355
G1 X40.687 Y61.183 E9.53839
G1 X40.687 Y44.15 E10.38817
G1 X40.696 Y43.485 E10.42135
G1 X40.744 Y42.951 E10.44809
G1 X40.87 Y42.43 E10.47484
G1 X41.072 Y41.933 E10.5016
G1 X41.345 Y41.472 E10.52833
G1 X41.684 Y41.056 E10.5551
G0 F3600 X41.741 Y41.607
G1 F1800 X42.076 Y41.229 E10.5803
G1 X42.467 Y40.908 E10.60554
G1 X42.904 Y40.653 E10.63078
G1 X43.375 Y40.469 E10.65601
G1 X43.869 Y40.363 E10.68122
G1 X44.206 Y40.335 E10.69809
G1 X44.527 Y40.326 E10.71411
G1 X44.617 Y40.325 E10.7186
G1 X66.626 Y40.325 E11.81663
G1 X67.324 Y40.335 E11.85146
G1 X67.827 Y40.382 E11.87667
G1 X68.317 Y40.508 E11.90191
G1 X68.781 Y40.71 E11.92715
G1 X69.207 Y40.982 E11.95237
G1 X69.585 Y41.317 E11.97757
G1 X69.905 Y41.708 E12.00278
G1 X70.16 Y42.145 E12.02802
G1 X70.343 Y42.616 E12.05323
G1 X70.45 Y43.11 E12.07845
G1 X70.477 Y43.445 E12.09521
G1 X70.486 Y43.765 E12.11118
G1 X70.487 Y43.855 E12.11567
G1 X70.487 Y60.829 E12.96251
G1 X70.478 Y61.556 E12.99878
G1 X70.432 Y62.059 E13.02398
G1 X70.307 Y62.549 E13.04921
G1 X70.106 Y63.013 E13.07444
G1 X69.835 Y63.44 E13.09967
G1 X69.5 Y63.819 E13.12491
G1 X69.11 Y64.14 E13.15011
G1 X68.674 Y64.396 E13.17533
G1 X68.203 Y64.579 E13.20054
G1 X67.709 Y64.687 E13.22577
G1 X67.368 Y64.715 E13.24284
G1 X67.047 Y64.724 E13.25886
G1 X66.957 Y64.725 E13.26335
G1 X44.953 Y64.725 E14.36114
G1 X44.255 Y64.716 E14.39596
G1 X43.751 Y64.669 E14.42122
G1 X43.261 Y64.544 E14.44644
G1 X42.797 Y64.343 E14.47167
G1 X42.371 Y64.072 E14.49686
G1 X41.992 Y63.737 E14.5221
G1 X41.671 Y63.346 E14.54734
G1 X41.416 Y62.91 E14.57254
G1 X41.232 Y62.439 E14.59776
G1 X41.125 Y61.945 E14.62298
G1 X41.097 Y61.602 E14.64015
G1 X41.088 Y61.269 E14.65677
G1 X41.087 Y61.183 E14.66106
G1 X41.087 Y44.156 E15.51054
G1 X41.096 Y43.491 E15.54372
G1 X41.143 Y42.987 E15.56897
G1 X41.269 Y42.498 E15.59417
G1 X41.47 Y42.034 E15.6194
G1 X41.741 Y41.607 E15.64463
;MESH:11_Connettore_MPU.stl
G0 F3600 X43.622 Y44.139
G0 X44.901 Y44.139
G0 X45.359 Y56.819
;TYPE:WALL-INNER
G1 F1800 X45.287 Y57.037 E15.65608
G1 X45.287 Y56.819 E15.65695
G1 X45.287 Y56.292 E15.68324
G1 X45.287 Y44.525 E16.2703
G1 X66.287 Y44.525 E17.31799
G1 X66.287 Y56.319 E17.9064
G1 X66.287 Y56.585 E17.91967
G1 X66.287 Y57.041 E17.94242
G1 X66.081 Y56.585 E17.95007
G1 X65.911 Y56.382 E17.96026
G1 X65.602 Y56.013 E17.98427
G1 X64.981 Y55.592 E18.0217
G1 X64.27 Y55.36 E18.05901
G1 X63.523 Y55.328 E18.09631
G1 X62.796 Y55.503 E18.13362
G1 X62.145 Y55.87 E18.1709
G1 X61.62 Y56.398 E18.20805
G1 X61.256 Y57.053 E18.24544
G1 X61.094 Y57.759 E18.28157
G1 X61.094 Y58.294 E18.30826
G1 X61.26 Y59.006 E18.34474
G1 X61.626 Y59.662 E18.38222
G1 X62.101 Y60.135 E18.41566
G1 X62.156 Y60.19 E18.41954
G1 X62.76 Y60.525 E18.454
G1 X62.156 Y60.525 E18.46596
G1 X62.078 Y60.525 E18.46957
G1 X49.519 Y60.525 E19.09614
G1 X49.008 Y60.525 E19.12163
G1 X48.769 Y60.525 E19.13355
G1 X49.008 Y60.444 E19.13528
G1 X49.428 Y60.153 E19.15105
G1 X49.624 Y60.018 E19.16293
G1 X50.099 Y59.437 E19.20037
G1 X50.396 Y58.753 E19.23757
G1 X50.497 Y58.012 E19.27488
G1 X50.39 Y57.273 E19.31214
G1 X50.086 Y56.59 E19.34943
G1 X49.606 Y56.018 E19.38669
G1 X49.008 Y55.609 E19.42283
G1 X48.506 Y55.416 E19.44966
G1 X47.784 Y55.315 E19.48604
G1 X47.041 Y55.421 E19.52348
G1 X46.358 Y55.723 E19.56074
G1 X45.784 Y56.201 E19.598
G1 X45.657 Y56.385 E19.60916
G1 X45.359 Y56.819 E19.62512
G0 F3600 X45.452 Y58.241
G0 X46.166 Y60.199
G1 F1800 X46.764 Y60.525 E19.6591
G1 X46.166 Y60.525 E19.67063
G1 X46.077 Y60.525 E19.67507
G1 X45.287 Y60.525 E19.71448
G1 X45.287 Y59.734 E19.75394
G1 X45.287 Y59.66 E19.75763
G1 X45.287 Y59.055 E19.78782
G1 X45.625 Y59.66 E19.8043
G1 X45.677 Y59.712 E19.8077
G1 X46.103 Y60.137 E19.83772
G1 X46.166 Y60.199 E19.84175
G0 F3600 X47.586 Y60.361
G0 X64.218 Y60.33
G0 X65.614 Y60.027
G1 F1800 X65.912 Y59.664 E19.86518
G1 X66.098 Y59.437 E19.87983
G1 X66.287 Y59.004 E19.9034
G1 X66.287 Y59.437 E19.90812
G1 X66.287 Y59.731 E19.91915
G1 X66.287 Y60.525 E19.95876
G1 X65.521 Y60.525 E19.99698
G1 X64.994 Y60.525 E20.02327
G1 X64.775 Y60.525 E20.0342
G1 X64.994 Y60.452 E20.03561
G1 X65.429 Y60.154 E20.05164
G1 X65.614 Y60.027 E20.06284
G0 F3600 X65.341 Y59.729
G1 F1800 X65.754 Y59.226 E20.09531
G1 X66.009 Y58.641 E20.12715
G1 X66.093 Y58.01 E20.15891
G1 X66.001 Y57.38 E20.19067
G1 X65.739 Y56.8 E20.22242
G1 X65.331 Y56.313 E20.25412
G1 X64.803 Y55.955 E20.28594
G1 X64.198 Y55.757 E20.3177
G1 X63.562 Y55.73 E20.34946
G1 X62.944 Y55.879 E20.38118
G1 X62.39 Y56.191 E20.4129
G1 X61.943 Y56.641 E20.44454
G1 X61.633 Y57.198 E20.47634
G1 X61.494 Y57.804 E20.50736
G1 X61.494 Y58.248 E20.52951
G1 X61.637 Y58.86 E20.56087
G1 X61.948 Y59.418 E20.59274
G1 X62.399 Y59.867 E20.62449
G1 X62.955 Y60.176 E20.65623
G1 X63.576 Y60.321 E20.68804
G1 X64.211 Y60.291 E20.71976
G1 X64.814 Y60.09 E20.75147
G1 X65.341 Y59.729 E20.78334
G0 F3600 X65.408 Y59.802
G0 X64.218 Y60.33
G0 X47.586 Y60.361
G0 X46.349 Y59.955
G0 X46.408 Y59.875
G1 F1800 X46.969 Y60.181 E20.81522
G1 X47.589 Y60.322 E20.84694
G1 X48.224 Y60.288 E20.87867
G1 X48.826 Y60.083 E20.91039
G1 X49.35 Y59.721 E20.94217
G1 X49.754 Y59.227 E20.974
G1 X50.007 Y58.644 E21.00571
G1 X50.093 Y58.014 E21.03743
G1 X50.002 Y57.385 E21.06914
G1 X49.743 Y56.804 E21.10088
G1 X49.335 Y56.317 E21.13257
G1 X48.821 Y55.966 E21.16363
G1 X48.405 Y55.806 E21.18586
G1 X47.784 Y55.719 E21.21715
G1 X47.152 Y55.809 E21.249
G1 X46.571 Y56.066 E21.28069
G1 X46.082 Y56.473 E21.31243
G1 X45.721 Y56.999 E21.34426
G1 X45.521 Y57.603 E21.376
G1 X45.491 Y58.238 E21.40772
G1 X45.636 Y58.859 E21.43953
G1 X45.947 Y59.416 E21.47136
G1 X46.408 Y59.875 E21.50382
G0 F3600 X46.349 Y59.955
G0 X44.957 Y60.855
G0 X44.887 Y60.925
G1 F1800 X44.887 Y44.125 E22.34197
G1 X66.687 Y44.125 E23.42958
G1 X66.687 Y60.925 E24.26773
G1 X44.887 Y60.925 E25.35534
G0 F3600 X44.487 Y61.325
;TYPE:WALL-OUTER
G1 F1800 X44.487 Y43.725 E26.23341
G1 X67.087 Y43.725 E27.36093
G1 X67.087 Y61.325 E28.23899
G1 X44.487 Y61.325 E29.36651
G0 F3600 X44.487 Y61.125
G0 X44.957 Y60.855
G0 X46.411 Y59.989
G0 X46.65 Y59.551
G1 F1800 X47.112 Y59.803 E29.39277
G1 X47.624 Y59.92 E29.41897
G1 X48.147 Y59.892 E29.4451
G1 X48.644 Y59.722 E29.47131
G1 X49.076 Y59.424 E29.49749
G1 X49.409 Y59.017 E29.52372
G1 X49.618 Y58.535 E29.54993
G1 X49.689 Y58.016 E29.57607
G1 X49.614 Y57.497 E29.60223
G1 X49.4 Y57.018 E29.6284
G1 X49.064 Y56.616 E29.65454
G1 X48.634 Y56.323 E29.6805
G1 X48.304 Y56.196 E29.69814
G1 X47.784 Y56.123 E29.72434
G1 X47.263 Y56.197 E29.75059
G1 X46.784 Y56.409 E29.77673
G1 X46.38 Y56.745 E29.80294
G1 X46.083 Y57.178 E29.82914
G1 X45.918 Y57.677 E29.85536
G1 X45.893 Y58.201 E29.88153
G1 X46.013 Y58.713 E29.90777
G1 X46.269 Y59.172 E29.93399
G1 X46.65 Y59.551 E29.9608
G0 F3600 X46.825 Y59.646
G0 X46.585 Y60.084
G0 X47.586 Y60.361
G0 X61.524 Y57.231
G0 X62.01 Y57.343
G1 F1800 X61.894 Y57.849 E29.9867
G1 X61.894 Y58.202 E30.00431
G1 X62.014 Y58.714 E30.03055
G1 X62.27 Y59.174 E30.05681
G1 X62.642 Y59.544 E30.08299
G1 X63.101 Y59.799 E30.10918
G1 X63.613 Y59.919 E30.13542
G1 X64.137 Y59.894 E30.16159
G1 X64.634 Y59.728 E30.18773
G1 X65.068 Y59.431 E30.21397
G1 X65.41 Y59.015 E30.24084
G1 X65.62 Y58.533 E30.26707
G1 X65.689 Y58.013 E30.29324
G1 X65.613 Y57.493 E30.31946
G1 X65.397 Y57.015 E30.34563
G1 X65.06 Y56.613 E30.3718
G1 X64.625 Y56.318 E30.39802
G1 X64.126 Y56.154 E30.42422
G1 X63.601 Y56.132 E30.45044
G1 X63.092 Y56.255 E30.47656
G1 X62.635 Y56.512 E30.50272
G1 X62.266 Y56.884 E30.52886
G1 X62.01 Y57.343 E30.55508
G0 F3600 X61.966 Y57.537
G0 X61.479 Y57.425
G0 X60.888 Y56.912
;TYPE:SKIN
G1 F1800 X60.704 Y57.715 E30.59618
G1 X60.704 Y58.339 E30.62732
G1 X60.893 Y59.148 E30.66876
G1 X61.312 Y59.9 E30.71171
G1 X61.548 Y60.135 E30.72833
G1 X50.032 Y60.135 E31.30286
G1 X50.435 Y59.642 E31.33463
G1 X50.775 Y58.859 E31.37722
G1 X50.891 Y58.01 E31.41997
G1 X50.768 Y57.164 E31.46262
G1 X50.42 Y56.381 E31.50537
G1 X49.871 Y55.726 E31.54801
G1 X49.191 Y55.262 E31.58908
G1 X48.604 Y55.036 E31.62046
G1 X47.784 Y54.921 E31.66177
G1 X46.932 Y55.043 E31.70471
G1 X46.151 Y55.388 E31.74731
G1 X45.677 Y55.783 E31.77809
G1 X45.677 Y44.915 E32.3203
G1 X65.897 Y44.915 E33.32908
G1 X65.897 Y55.758 E33.87003
G1 X65.866 Y55.721 E33.87244
G1 X65.154 Y55.239 E33.91534
G1 X64.34 Y54.972 E33.95808
G1 X63.484 Y54.936 E34.00082
G1 X62.652 Y55.136 E34.04351
G1 X61.907 Y55.556 E34.08618
G1 X61.306 Y56.162 E34.12876
G1 X60.888 Y56.912 E34.1716
G0 F3600 X50.618 Y59.669
G1 F1800 X50.903 Y59.954 E34.19171
G0 F3600 X51.468 Y59.954
G1 F1800 X50.789 Y59.274 E34.23965
G0 F3600 X50.953 Y58.873
G1 F1800 X52.034 Y59.954 E34.31592
G0 F3600 X52.6 Y59.954
G1 F1800 X51.021 Y58.375 E34.42733
G0 F3600 X51.047 Y57.835
G1 F1800 X53.165 Y59.954 E34.5768
G0 F3600 X53.731 Y59.954
G1 F1800 X50.95 Y57.173 E34.77301
G1 X50.88 Y57.103
G0 F3600 X50.297 Y55.954
G1 F1800 X54.297 Y59.954 E35.05523
G0 F3600 X54.863 Y59.954
G1 F1800 X45.856 Y50.947 E35.69073
G0 F3600 X45.856 Y50.382
G1 F1800 X55.428 Y59.954 E36.36608
G0 F3600 X55.994 Y59.954
G1 F1800 X45.855 Y49.815 E37.08144
G0 F3600 X45.855 Y49.249
G1 F1800 X56.56 Y59.954 E37.83674
G0 F3600 X57.125 Y59.954
G1 F1800 X45.855 Y48.684 E38.6319
G0 F3600 X45.855 Y48.118
G1 F1800 X57.691 Y59.954 E39.46699
G0 F3600 X58.257 Y59.954
G1 F1800 X45.855 Y47.552 E40.34202
G0 F3600 X45.855 Y46.987
G1 F1800 X58.822 Y59.954 E41.25691
G0 F3600 X59.388 Y59.954
G1 F1800 X45.855 Y46.421 E42.21174
G0 F3600 X45.855 Y45.855
G1 F1800 X59.954 Y59.954 E43.2065
G0 F3600 X60.519 Y59.954
G1 F1800 X45.855 Y45.29 E44.24112
G0 F3600 X46.226 Y45.095
G1 F1800 X61.085 Y59.954 E45.28951
G1 X61.155 Y60.024
G0 F3600 X60.665 Y58.968
G1 F1800 X46.792 Y45.095 E46.26832
G0 F3600 X47.357 Y45.095
G1 F1800 X60.523 Y58.26 E47.19722
G0 F3600 X60.523 Y57.694
G1 F1800 X47.923 Y45.095 E48.08618
G0 F3600 X48.489 Y45.095
G1 F1800 X60.628 Y57.234 E48.94265
G0 F3600 X60.749 Y56.789
G1 F1800 X49.054 Y45.095 E49.76776
G0 F3600 X49.62 Y45.095
G1 F1800 X60.951 Y56.426 E50.56723
G0 F3600 X61.154 Y56.063
G1 F1800 X50.186 Y45.095 E51.34108
G0 F3600 X50.751 Y45.095
G1 F1800 X61.434 Y55.777 E52.09479
G0 F3600 X61.715 Y55.493
G1 F1800 X51.317 Y45.095 E52.82842
G0 F3600 X51.883 Y45.095
G1 F1800 X62.053 Y55.265 E53.54597
G0 F3600 X62.414 Y55.06
G1 F1800 X52.448 Y45.095 E54.24909
G0 F3600 X53.014 Y45.095
G1 F1800 X62.827 Y54.907 E54.94142
G0 F3600 X63.283 Y54.797
G1 F1800 X53.58 Y45.095 E55.62598
G0 F3600 X54.145 Y45.095
G1 F1800 X63.82 Y54.769 E56.30857
G0 F3600 X64.427 Y54.81
G1 F1800 X54.711 Y45.095 E56.99405
G0 F3600 X55.277 Y45.095
G1 F1800 X65.311 Y55.128 E57.70197
G0 F3600 X65.716 Y54.968
G1 F1800 X55.843 Y45.095 E58.39856
G0 F3600 X56.408 Y45.095
G1 F1800 X65.716 Y54.402 E59.05525
G0 F3600 X65.716 Y53.836
G1 F1800 X56.974 Y45.095 E59.67201
G0 F3600 X57.54 Y45.095
G1 F1800 X65.716 Y53.271 E60.24887
G0 F3600 X65.716 Y52.705
G1 F1800 X58.105 Y45.095 E60.78584
G0 F3600 X58.671 Y45.095
G1 F1800 X65.716 Y52.139 E61.28286
G0 F3600 X65.716 Y51.574
G1 F1800 X59.237 Y45.095 E61.73999
G0 F3600 X59.802 Y45.095
G1 F1800 X65.716 Y51.008 E62.15722
G0 F3600 X65.716 Y50.442
G1 F1800 X60.368 Y45.095 E62.53452
G0 F3600 X60.934 Y45.095
G1 F1800 X65.716 Y49.877 E62.87191
G0 F3600 X65.716 Y49.311
G1 F1800 X61.499 Y45.095 E63.16941
G0 F3600 X62.065 Y45.095
G1 F1800 X65.716 Y48.745 E63.42697
G0 F3600 X65.716 Y48.18
G1 F1800 X62.631 Y45.095 E63.64464
G0 F3600 X63.196 Y45.095
G1 F1800 X65.716 Y47.614 E63.8224
G0 F3600 X65.716 Y47.048
G1 F1800 X63.762 Y45.095 E63.96023
G0 F3600 X64.328 Y45.095
G1 F1800 X65.716 Y46.483 E64.05816
G0 F3600 X65.716 Y45.917
G1 F1800 X64.894 Y45.095 E64.11616
G0 F3600 X65.459 Y45.095
G1 F1800 X65.716 Y45.351 E64.13425
G0 F3600 X49.806 Y55.463
G1 F1800 X45.856 Y51.513 E64.41295
G0 F3600 X45.856 Y52.079
G1 F1800 X48.635 Y54.858 E64.60902
G0 F3600 X47.976 Y54.764
G1 F1800 X45.856 Y52.644 E64.7586
G0 F3600 X45.856 Y53.21
G1 F1800 X47.434 Y54.788 E64.86994
G0 F3600 X46.939 Y54.858
G1 F1800 X45.856 Y53.776 E64.94631
G0 F3600 X45.856 Y54.341
G1 F1800 X46.534 Y55.019 E64.99415
G0 F3600 X46.142 Y55.193
G1 F1800 X45.856 Y54.907 E65.01433
G0 F3600 X45.35 Y57.229
G0 X45.383 Y57.262
;TYPE:SKIN
G1 F1800 X45.214 Y57.376 E65.02128
G1 X45.238 Y58.532 E65.06072
G1 X45.185 Y58.762 E65.06877
G0 F3600 X45.081 Y58.658
G0 X45.481 Y59.906
G0 X45.692 Y60.117
G1 F1800 X45.551 Y60.258 E65.0886
G0 F3600 X45.481 Y60.189
G0 X46.948 Y60.524
G0 X47.05 Y60.626
G1 F1800 X47.278 Y60.572 E65.09714
G1 X48.434 Y60.597 E65.1393
G1 X48.545 Y60.424 E65.14679
G0 F3600 X48.514 Y60.393
G0 X62.912 Y60.649
G0 X62.952 Y60.689
G1 F1800 X63.096 Y60.55 E65.15387
G1 X64.285 Y60.608 E65.19601
G1 X64.504 Y60.544 E65.20408
G0 F3600 X64.395 Y60.435
