;FLAVOR:Marlin
;TIME:803
;Filament used: 1.31973m
;Layer height: 0.3
;MINX:12.5
;MINY:16
;MINZ:0.3
;MAXX:47.5
;MAXY:44
;MAXZ:22.8
;Generated with Cura_SteamEngine 4.3.0
M140 S60
M105
M190 S60
M104 S210
M105
M109 S210
M82 ;absolute extrusion mode
G28 ;Home
G1 Z15.0 F6000 ;Move the platform down 15mm
;Prime the extruder
G92 E0
G1 F200 E3
G92 E0
G92 E0
G92 E0
;LAYER_COUNT:76
;LAYER:0
M107 P1
G0 F3600 X13.906 Y16.972 Z0.3
;TYPE:SKIRT
G1 F1800 X14.36 Y16.635 E0.02821
G1 X14.857 Y16.366 E0.0564
G1 X15.387 Y16.169 E0.08461
G1 X15.94 Y16.05 E0.11283
G1 X16.397 Y16.011 E0.13572
G1 X16.718 Y16.002 E0.15174
G1 X16.83 Y16 E0.15733
G1 X42.85 Y16 E1.45547
G1 X43.548 Y16.01 E1.4903
G1 X44.112 Y16.058 E1.51853
G1 X44.662 Y16.185 E1.5467
G1 X45.19 Y16.389 E1.57494
G1 X45.684 Y16.664 E1.60314
G1 X46.133 Y17.007 E1.63133
G1 X46.53 Y17.409 E1.65952
G1 X46.867 Y17.864 E1.68777
G1 X47.135 Y18.361 E1.71594
G1 X47.331 Y18.891 E1.74413
G1 X47.451 Y19.444 E1.77236
G1 X47.489 Y19.898 E1.79509
G1 X47.498 Y20.218 E1.81106
G1 X47.5 Y20.33 E1.81665
G1 X47.5 Y39.314 E2.76377
G1 X47.491 Y40.041 E2.80004
G1 X47.444 Y40.604 E2.82823
G1 X47.318 Y41.155 E2.85643
G1 X47.116 Y41.683 E2.88463
G1 X46.841 Y42.177 E2.91284
G1 X46.499 Y42.627 E2.94103
G1 X46.097 Y43.025 E2.96926
G1 X45.644 Y43.362 E2.99743
G1 X45.147 Y43.632 E3.02564
G1 X44.617 Y43.829 E3.05385
G1 X44.065 Y43.95 E3.08205
G1 X43.603 Y43.989 E3.10518
G1 X43.282 Y43.998 E3.1212
G1 X43.17 Y44 E3.12679
G1 X17.155 Y44 E4.42468
G1 X16.457 Y43.991 E4.45951
G1 X15.894 Y43.943 E4.4877
G1 X15.343 Y43.817 E4.5159
G1 X14.815 Y43.615 E4.5441
G1 X14.321 Y43.34 E4.57231
G1 X13.871 Y42.998 E4.60051
G1 X13.473 Y42.596 E4.62873
G1 X13.137 Y42.142 E4.65691
G1 X12.867 Y41.645 E4.68513
G1 X12.67 Y41.115 E4.71333
G1 X12.55 Y40.563 E4.74152
G1 X12.51 Y40.099 E4.76475
G1 X12.501 Y39.766 E4.78137
G1 X12.5 Y39.658 E4.78676
G1 X12.5 Y20.62 E5.73657
G1 X12.509 Y19.955 E5.76975
G1 X12.557 Y19.392 E5.79794
G1 X12.683 Y18.841 E5.82614
G1 X12.886 Y18.313 E5.85436
G1 X13.162 Y17.819 E5.88259
G1 X13.504 Y17.369 E5.91079
G1 X13.906 Y16.972 E5.93898
G0 F3600 X14.294 Y17.171
G1 F1800 X14.741 Y16.873 E5.96578
G1 X15.226 Y16.645 E5.99252
G1 X15.74 Y16.492 E6.01927
G1 X16.408 Y16.41 E6.05285
G1 X16.729 Y16.401 E6.06887
G1 X16.83 Y16.4 E6.07391
G1 X42.845 Y16.4 E7.3718
G1 X43.543 Y16.41 E7.40663
G1 X44.077 Y16.458 E7.43338
G1 X44.598 Y16.584 E7.46012
G1 X45.095 Y16.787 E7.48691
G1 X45.556 Y17.061 E7.51366
G1 X45.971 Y17.4 E7.54039
G1 X46.331 Y17.798 E7.56717
G1 X46.628 Y18.244 E7.5939
G1 X46.856 Y18.73 E7.62068
G1 X47.008 Y19.244 E7.64743
G1 X47.09 Y19.909 E7.68085
G1 X47.099 Y20.229 E7.69683
G1 X47.1 Y20.33 E7.70186
G1 X47.1 Y39.309 E8.64873
G1 X47.091 Y40.036 E8.685
G1 X47.044 Y40.57 E8.71175
G1 X46.919 Y41.091 E8.73848
G1 X46.717 Y41.588 E8.76524
G1 X46.444 Y42.05 E8.79202
G1 X46.106 Y42.466 E8.81876
G1 X45.709 Y42.827 E8.84553
G1 X45.263 Y43.125 E8.87229
G1 X44.778 Y43.353 E8.89903
G1 X44.264 Y43.507 E8.9258
G1 X43.592 Y43.59 E8.95958
G1 X43.271 Y43.599 E8.9756
G1 X43.17 Y43.6 E8.98064
G1 X17.161 Y43.6 E10.27823
G1 X16.463 Y43.591 E10.31306
G1 X15.928 Y43.544 E10.33985
G1 X15.407 Y43.418 E10.36659
G1 X14.91 Y43.216 E10.39336
G1 X14.449 Y42.943 E10.42009
G1 X14.033 Y42.604 E10.44686
G1 X13.672 Y42.208 E10.4736
G1 X13.374 Y41.762 E10.50036
G1 X13.146 Y41.276 E10.52714
G1 X12.993 Y40.762 E10.55389
G1 X12.91 Y40.088 E10.58777
G1 X12.901 Y39.755 E10.60439
G1 X12.9 Y39.658 E10.60923
G1 X12.9 Y20.625 E11.55879
G1 X12.909 Y19.96 E11.59197
G1 X12.957 Y19.426 E11.61872
G1 X13.083 Y18.905 E11.64546
G1 X13.285 Y18.408 E11.67223
G1 X13.558 Y17.947 E11.69896
G1 X13.897 Y17.531 E11.72573
G1 X14.294 Y17.171 E11.75247
G0 F3600 X14.289 Y17.704
G1 F1800 X14.68 Y17.383 E11.77771
G1 X15.117 Y17.128 E11.80295
G1 X15.588 Y16.944 E11.82818
G1 X16.082 Y16.838 E11.85338
G1 X16.419 Y16.81 E11.87026
G1 X16.74 Y16.801 E11.88628
G1 X16.83 Y16.8 E11.89077
G1 X42.839 Y16.8 E13.18836
G1 X43.537 Y16.81 E13.22319
G1 X44.04 Y16.857 E13.24839
G1 X44.53 Y16.983 E13.27363
G1 X44.994 Y17.185 E13.29888
G1 X45.42 Y17.457 E13.3241
G1 X45.798 Y17.792 E13.3493
G1 X46.118 Y18.183 E13.3745
G1 X46.373 Y18.62 E13.39975
G1 X46.556 Y19.091 E13.42496
G1 X46.663 Y19.585 E13.45017
G1 X46.69 Y19.92 E13.46694
G1 X46.699 Y20.24 E13.48291
G1 X46.7 Y20.33 E13.4874
G1 X46.7 Y39.304 E14.43402
G1 X46.691 Y40.031 E14.47029
G1 X46.645 Y40.534 E14.49549
G1 X46.52 Y41.024 E14.52072
G1 X46.319 Y41.488 E14.54595
G1 X46.048 Y41.915 E14.57118
G1 X45.713 Y42.294 E14.59641
G1 X45.323 Y42.615 E14.62162
G1 X44.887 Y42.871 E14.64684
G1 X44.416 Y43.054 E14.67205
G1 X43.922 Y43.162 E14.69728
G1 X43.581 Y43.19 E14.71435
G1 X43.26 Y43.199 E14.73037
G1 X43.17 Y43.2 E14.73486
G1 X17.166 Y43.2 E16.0322
G1 X16.468 Y43.191 E16.06703
G1 X15.964 Y43.144 E16.09228
G1 X15.474 Y43.019 E16.11751
G1 X15.01 Y42.818 E16.14274
G1 X14.584 Y42.547 E16.16793
G1 X14.205 Y42.212 E16.19317
G1 X13.884 Y41.821 E16.2184
G1 X13.629 Y41.385 E16.2436
G1 X13.445 Y40.914 E16.26883
G1 X13.338 Y40.42 E16.29405
G1 X13.31 Y40.077 E16.31122
G1 X13.301 Y39.744 E16.32784
G1 X13.3 Y39.658 E16.33213
G1 X13.3 Y20.631 E17.28139
G1 X13.309 Y19.966 E17.31457
G1 X13.356 Y19.462 E17.33982
G1 X13.482 Y18.973 E17.36502
G1 X13.683 Y18.509 E17.39024
G1 X13.954 Y18.082 E17.41547
G1 X14.289 Y17.704 E17.44067
;MESH:11_Connettore_MPU.stl
G0 F3600 X17.114 Y19.335
G0 X17.114 Y20.614
G0 X18.553 Y36.196
G0 X19.703 Y38.106
;TYPE:WALL-INNER
G1 F1800 X20.444 Y38.353 E17.47964
G1 X20.955 Y38.4 E17.50524
G1 X22.936 Y38.4 E17.60408
G1 X23.558 Y38.354 E17.63519
G1 X24.299 Y38.104 E17.67421
G1 X24.96 Y37.649 E17.71424
G1 X25.473 Y37.03 E17.75435
G1 X25.797 Y36.297 E17.79434
G1 X25.91 Y35.5 E17.8345
G1 X25.797 Y34.703 E17.87466
G1 X25.473 Y33.97 E17.91464
G1 X24.96 Y33.351 E17.95475
G1 X24.297 Y32.894 E17.99492
G1 X23.556 Y32.647 E18.03389
G1 X23.045 Y32.6 E18.05949
G1 X21.064 Y32.6 E18.15832
G1 X20.442 Y32.646 E18.18944
G1 X19.701 Y32.896 E18.22846
G1 X19.04 Y33.351 E18.26849
G1 X18.527 Y33.97 E18.3086
G1 X18.203 Y34.703 E18.34858
G1 X18.09 Y35.5 E18.38874
G1 X18.203 Y36.297 E18.4289
G1 X18.527 Y37.03 E18.46889
G1 X19.04 Y37.649 E18.50899
G1 X19.703 Y38.106 E18.54917
G0 F3600 X17.5 Y39
G1 F1800 X17.5 Y21 E19.44719
G1 X42.5 Y21 E20.69445
G1 X42.5 Y39 E21.59247
G1 X17.5 Y39 E22.83973
G0 F3600 X35.703 Y38.106
G1 F1800 X36.444 Y38.353 E22.87869
G1 X36.955 Y38.4 E22.9043
G1 X38.936 Y38.4 E23.00313
G1 X39.558 Y38.354 E23.03424
G1 X40.299 Y38.104 E23.07326
G1 X40.96 Y37.649 E23.1133
G1 X41.473 Y37.03 E23.1534
G1 X41.797 Y36.297 E23.19339
G1 X41.91 Y35.5 E23.23355
G1 X41.797 Y34.703 E23.27371
G1 X41.473 Y33.97 E23.31369
G1 X40.96 Y33.351 E23.3538
G1 X40.297 Y32.894 E23.39397
G1 X39.556 Y32.647 E23.43294
G1 X39.045 Y32.6 E23.45854
G1 X37.064 Y32.6 E23.55738
G1 X36.442 Y32.646 E23.58849
G1 X35.701 Y32.896 E23.62751
G1 X35.04 Y33.351 E23.66754
G1 X34.527 Y33.97 E23.70765
G1 X34.203 Y34.703 E23.74764
G1 X34.09 Y35.5 E23.7878
G1 X34.203 Y36.297 E23.82796
G1 X34.527 Y37.03 E23.86794
G1 X35.04 Y37.649 E23.90805
G1 X35.703 Y38.106 E23.94822
G0 F3600 X34.836 Y36.839
G0 X34.394 Y35.5
G0 X34.494 Y35.5
G1 F1800 X34.591 Y36.186 E23.98279
G1 X34.87 Y36.818 E24.01725
G1 X35.312 Y37.351 E24.0518
G1 X35.883 Y37.744 E24.08638
G1 X36.527 Y37.959 E24.12025
G1 X36.973 Y38 E24.1426
G1 X38.921 Y38 E24.23978
G1 X39.478 Y37.959 E24.26765
G1 X40.118 Y37.743 E24.30135
G1 X40.688 Y37.351 E24.33586
G1 X41.13 Y36.818 E24.37041
G1 X41.409 Y36.186 E24.40487
G1 X41.506 Y35.5 E24.43944
G1 X41.409 Y34.814 E24.474
G1 X41.13 Y34.182 E24.50847
G1 X40.688 Y33.649 E24.54301
G1 X40.117 Y33.256 E24.5776
G1 X39.473 Y33.041 E24.61147
G1 X39.027 Y33 E24.63381
G1 X37.079 Y33 E24.731
G1 X36.522 Y33.041 E24.75886
G1 X35.882 Y33.257 E24.79256
G1 X35.312 Y33.649 E24.82708
G1 X34.87 Y34.182 E24.86162
G1 X34.591 Y34.814 E24.89609
G1 X34.494 Y35.5 E24.93065
G0 F3600 X34.394 Y35.5
G0 X23.485 Y37.998
G0 X20.972 Y38.039
G0 X19.866 Y37.779
G0 X18.836 Y36.839
G0 X18.394 Y35.5
G0 X18.494 Y35.5
G1 F1800 X18.591 Y36.186 E24.96522
G1 X18.87 Y36.818 E24.99968
G1 X19.312 Y37.351 E25.03423
G1 X19.883 Y37.744 E25.06881
G1 X20.527 Y37.959 E25.10268
G1 X20.973 Y38 E25.12503
G1 X22.921 Y38 E25.22222
G1 X23.478 Y37.959 E25.25008
G1 X24.118 Y37.743 E25.28378
G1 X24.688 Y37.351 E25.31829
G1 X25.13 Y36.818 E25.35284
G1 X25.409 Y36.186 E25.3873
G1 X25.506 Y35.5 E25.42187
G1 X25.409 Y34.814 E25.45643
G1 X25.13 Y34.182 E25.4909
G1 X24.688 Y33.649 E25.52545
G1 X24.117 Y33.256 E25.56003
G1 X23.473 Y33.041 E25.5939
G1 X23.027 Y33 E25.61625
G1 X21.079 Y33 E25.71343
G1 X20.522 Y33.041 E25.7413
G1 X19.882 Y33.257 E25.77499
G1 X19.312 Y33.649 E25.80951
G1 X18.87 Y34.182 E25.84405
G1 X18.591 Y34.814 E25.87852
G1 X18.494 Y35.5 E25.91308
G0 F3600 X18.394 Y35.5
G0 X17.17 Y39.33
G0 X17.1 Y39.4
G1 F1800 X17.1 Y20.6 E26.85102
G1 X42.9 Y20.6 E28.13819
G1 X42.9 Y39.4 E29.07612
G1 X17.1 Y39.4 E30.36329
G0 F3600 X16.7 Y39.8
;TYPE:WALL-OUTER
G1 F1800 X16.7 Y20.2 E31.34114
G1 X43.3 Y20.2 E32.66822
G1 X43.3 Y39.8 E33.64607
G1 X16.7 Y39.8 E34.97315
G0 F3600 X16.7 Y39.6
G0 X17.17 Y39.33
G0 X18.403 Y35.431
G0 X18.898 Y35.5
G1 F1800 X18.979 Y36.075 E35.00212
G1 X19.213 Y36.606 E35.03107
G1 X19.584 Y37.053 E35.06005
G1 X20.063 Y37.382 E35.08904
G1 X20.61 Y37.565 E35.11781
G1 X20.991 Y37.6 E35.1369
G1 X22.906 Y37.6 E35.23244
G1 X23.398 Y37.564 E35.25705
G1 X23.937 Y37.382 E35.28544
G1 X24.416 Y37.053 E35.31443
G1 X24.787 Y36.606 E35.34341
G1 X25.021 Y36.075 E35.37236
G1 X25.102 Y35.5 E35.40133
G1 X25.021 Y34.925 E35.4303
G1 X24.787 Y34.394 E35.45925
G1 X24.416 Y33.947 E35.48823
G1 X23.937 Y33.618 E35.51722
G1 X23.39 Y33.435 E35.546
G1 X23.009 Y33.4 E35.56509
G1 X21.094 Y33.4 E35.66063
G1 X20.602 Y33.436 E35.68524
G1 X20.063 Y33.618 E35.71362
G1 X19.584 Y33.947 E35.74261
G1 X19.213 Y34.394 E35.77159
G1 X18.979 Y34.925 E35.80054
G1 X18.898 Y35.5 E35.82951
G0 F3600 X18.925 Y35.698
G0 X18.43 Y35.767
G0 X18.836 Y36.839
G0 X19.866 Y37.779
G0 X22.922 Y38.039
G0 X34.403 Y35.431
G0 X34.898 Y35.5
G1 F1800 X34.979 Y36.075 E35.85848
G1 X35.213 Y36.606 E35.88743
G1 X35.584 Y37.053 E35.91642
G1 X36.063 Y37.382 E35.94541
G1 X36.61 Y37.565 E35.97418
G1 X36.991 Y37.6 E35.99327
G1 X38.906 Y37.6 E36.08881
G1 X39.398 Y37.564 E36.11342
G1 X39.937 Y37.382 E36.14181
G1 X40.416 Y37.053 E36.1708
G1 X40.787 Y36.606 E36.19978
G1 X41.021 Y36.075 E36.22873
G1 X41.102 Y35.5 E36.2577
G1 X41.021 Y34.925 E36.28667
G1 X40.787 Y34.394 E36.31562
G1 X40.416 Y33.947 E36.3446
G1 X39.937 Y33.618 E36.37359
G1 X39.39 Y33.435 E36.40237
G1 X39.009 Y33.4 E36.42146
G1 X37.094 Y33.4 E36.517
G1 X36.602 Y33.436 E36.54161
G1 X36.063 Y33.618 E36.56999
G1 X35.584 Y33.947 E36.59898
G1 X35.213 Y34.394 E36.62796
G1 X34.979 Y34.925 E36.65691
G1 X34.898 Y35.5 E36.68588
G0 F3600 X34.925 Y35.698
G0 X34.43 Y35.767
G0 X33.696 Y35.5
;TYPE:SKIN
G1 F1800 X33.825 Y36.406 E36.73154
G1 X34.192 Y37.237 E36.77686
G1 X34.775 Y37.939 E36.82239
G1 X35.527 Y38.459 E36.868
G1 X35.982 Y38.61 E36.89192
G1 X24.021 Y38.61 E37.48865
G1 X24.475 Y38.457 E37.51256
G1 X25.225 Y37.94 E37.558
G1 X25.808 Y37.237 E37.60357
G1 X26.175 Y36.406 E37.64889
G1 X26.304 Y35.5 E37.69455
G1 X26.175 Y34.594 E37.7402
G1 X25.808 Y33.763 E37.78552
G1 X25.225 Y33.061 E37.83105
G1 X24.473 Y32.541 E37.87666
G1 X23.636 Y32.263 E37.92066
G1 X23.063 Y32.21 E37.94937
G1 X21.05 Y32.21 E38.0498
G1 X20.364 Y32.26 E38.08412
G1 X19.525 Y32.543 E38.12829
G1 X18.775 Y33.06 E38.17374
G1 X18.192 Y33.763 E38.2193
G1 X17.89 Y34.447 E38.25661
G1 X17.89 Y21.39 E38.90802
G1 X42.11 Y21.39 E40.11636
G1 X42.11 Y34.447 E40.76778
G1 X41.808 Y33.763 E40.80508
G1 X41.225 Y33.061 E40.85061
G1 X40.473 Y32.541 E40.89622
G1 X39.636 Y32.263 E40.94022
G1 X39.063 Y32.21 E40.96893
G1 X37.05 Y32.21 E41.06936
G1 X36.364 Y32.26 E41.10368
G1 X35.525 Y32.543 E41.14785
G1 X34.775 Y33.06 E41.1933
G1 X34.192 Y33.763 E41.23886
G1 X33.825 Y34.594 E41.28418
G1 X33.696 Y35.5 E41.32984
G0 F3600 X35.286 Y37.38
G0 X36.394 Y37.956
G0 X40.021 Y38.61
G1 F1800 X40.475 Y38.457 E41.35374
G1 X41.225 Y37.94 E41.39919
G1 X41.808 Y37.237 E41.44475
G1 X42.11 Y36.553 E41.48206
G1 X42.11 Y38.61 E41.58468
G1 X40.021 Y38.61 E41.6889
G0 F3600 X19.982 Y38.61
G1 F1800 X17.89 Y38.61 E41.79327
G1 X17.89 Y36.553 E41.8959
G1 X18.192 Y37.237 E41.9332
G1 X18.775 Y37.939 E41.97872
G1 X19.527 Y38.459 E42.02434
G1 X19.982 Y38.61 E42.04826
G0 F3600 X18.63 Y38.429
G1 F1800 X18.07 Y37.869 E42.08777
G0 F3600 X18.199 Y33.473
G1 F1800 X18.07 Y33.343 E42.0969
G0 F3600 X18.455 Y33.163
G1 F1800 X18.07 Y32.777 E42.1241
G0 F3600 X18.07 Y32.212
G1 F1800 X18.729 Y32.871 E42.1706
G0 F3600 X19.064 Y32.64
G1 F1800 X18.07 Y31.646 E42.24073
G0 F3600 X18.07 Y31.08
G1 F1800 X19.398 Y32.409 E42.33446
G0 F3600 X19.81 Y32.255
G1 F1800 X18.07 Y30.515 E42.45723
G0 F3600 X18.07 Y29.949
G1 F1800 X20.233 Y32.112 E42.60984
G0 F3600 X20.737 Y32.051
G1 F1800 X18.07 Y29.383 E42.79805
G0 F3600 X18.07 Y28.818
G1 F1800 X21.281 Y32.029 E43.0246
G0 F3600 X21.846 Y32.029
G1 F1800 X18.07 Y28.252 E43.29105
G0 F3600 X18.07 Y27.686
G1 F1800 X22.412 Y32.029 E43.59744
G0 F3600 X22.978 Y32.029
G1 F1800 X18.07 Y27.121 E43.94373
G0 F3600 X18.07 Y26.555
G1 F1800 X23.592 Y32.077 E44.33333
G1 X23.662 Y32.147
G0 F3600 X24.41 Y32.329
G1 F1800 X18.07 Y25.989 E44.78065
G0 F3600 X18.07 Y25.424
G1 F1800 X31.075 Y38.429 E45.69823
G0 F3600 X31.64 Y38.429
G1 F1800 X18.07 Y24.858 E46.6557
G0 F3600 X18.07 Y24.292
G1 F1800 X32.206 Y38.429 E47.65311
G0 F3600 X32.772 Y38.429
G1 F1800 X18.07 Y23.726 E48.69045
G0 F3600 X18.07 Y23.161
G1 F1800 X33.337 Y38.429 E49.76765
G0 F3600 X33.903 Y38.429
G1 F1800 X18.07 Y22.595 E50.88479
G0 F3600 X18.07 Y22.029
G1 F1800 X34.469 Y38.429 E52.04186
G0 F3600 X34.736 Y38.13
G1 F1800 X35.035 Y38.429 E52.06296
G0 F3600 X34.529 Y37.923
G1 F1800 X18.175 Y21.569 E53.21682
G0 F3600 X18.741 Y21.569
G1 F1800 X33.669 Y36.498 E54.27011
G0 F3600 X33.56 Y35.823
G1 F1800 X19.306 Y21.569 E55.27581
G0 F3600 X19.872 Y21.569
G1 F1800 X33.55 Y35.247 E56.24086
G0 F3600 X33.621 Y34.752
G1 F1800 X20.438 Y21.569 E57.17099
G0 F3600 X21.003 Y21.569
G1 F1800 X33.75 Y34.316 E58.07036
G0 F3600 X33.923 Y33.923
G1 F1800 X21.569 Y21.569 E58.94201
G0 F3600 X22.135 Y21.569
G1 F1800 X34.125 Y33.559 E59.78796
G0 F3600 X34.382 Y33.25
G1 F1800 X22.7 Y21.569 E60.61216
G0 F3600 X23.266 Y21.569
G1 F1800 X34.639 Y32.941 E61.41455
G0 F3600 X34.968 Y32.705
G1 F1800 X23.832 Y21.569 E62.20025
G0 F3600 X24.398 Y21.569
G1 F1800 X35.303 Y32.475 E62.9697
G0 F3600 X35.69 Y32.296
G1 F1800 X24.963 Y21.569 E63.72654
G0 F3600 X25.529 Y21.569
G1 F1800 X36.113 Y32.153 E64.4733
G0 F3600 X36.588 Y32.063
G1 F1800 X26.095 Y21.569 E65.21367
G0 F3600 X26.66 Y21.569
G1 F1800 X37.12 Y32.029 E65.95168
G0 F3600 X37.686 Y32.029
G1 F1800 X27.226 Y21.569 E66.68969
G0 F3600 X27.792 Y21.569
G1 F1800 X38.252 Y32.029 E67.4277
G0 F3600 X38.818 Y32.029
G1 F1800 X28.357 Y21.569 E68.16575
G0 F3600 X28.923 Y21.569
G1 F1800 X39.415 Y32.061 E68.90602
G0 F3600 X40.17 Y32.25
G1 F1800 X29.489 Y21.569 E69.65962
G0 F3600 X30.055 Y21.57
G1 F1800 X41.929 Y33.444 E70.49739
G0 F3600 X41.929 Y32.878
G1 F1800 X30.621 Y21.57 E71.29523
G0 F3600 X31.186 Y21.57
G1 F1800 X41.929 Y32.312 E72.05317
G0 F3600 X41.929 Y31.746
G1 F1800 X31.752 Y21.57 E72.77118
G0 F3600 X32.318 Y21.57
G1 F1800 X41.929 Y31.181 E73.44929
G0 F3600 X41.929 Y30.615
G1 F1800 X32.884 Y21.57 E74.08746
G0 F3600 X33.449 Y21.57
G1 F1800 X41.929 Y30.049 E74.68574
G0 F3600 X41.929 Y29.484
G1 F1800 X34.015 Y21.57 E75.24411
G0 F3600 X34.581 Y21.57
G1 F1800 X41.929 Y28.918 E75.76255
G0 F3600 X41.929 Y28.352
G1 F1800 X35.146 Y21.57 E76.2411
G0 F3600 X35.712 Y21.57
G1 F1800 X41.929 Y27.787 E76.67974
G0 F3600 X41.929 Y27.221
G1 F1800 X36.278 Y21.57 E77.07845
G0 F3600 X36.843 Y21.57
G1 F1800 X41.929 Y26.655 E77.43726
G0 F3600 X41.929 Y26.09
G1 F1800 X37.409 Y21.57 E77.75617
G0 F3600 X37.975 Y21.57
G1 F1800 X41.929 Y25.524 E78.03514
G0 F3600 X41.929 Y24.958
G1 F1800 X38.54 Y21.57 E78.27422
G0 F3600 X39.106 Y21.57
G1 F1800 X41.929 Y24.393 E78.4734
G0 F3600 X41.929 Y23.827
G1 F1800 X39.672 Y21.57 E78.63264
G0 F3600 X40.237 Y21.57
G1 F1800 X41.929 Y23.261 E78.75199
G0 F3600 X41.929 Y22.696
